%
(Header)
(Generated by gcodetools from Inkscape.)
(Using default header. To add your own header create file "header" in the output dir.)
M3
(Header end.)
G21 (All units in mm)

(Start cutting path id: path21)
(Change tool to Default tool)

G00 Z5.000000
G00 X34.592255 Y76.958980

G01 Z-1.000000 F100.0(Penetrate)
G03 X34.167356 Y76.945385 Z-1.000000 I0.107931 J-10.019802 F400.000000
G03 X33.922333 Y76.923880 Z-1.000000 I0.190459 J-3.576702
G03 X33.804245 Y76.905801 Z-1.000000 I0.268671 J-2.149640
G03 X33.736786 Y76.888680 Z-1.000000 I0.090026 J-0.496165
G03 X33.705728 Y76.876770 Z-1.000000 I0.079188 J-0.252950
G03 X33.676236 Y76.857480 Z-1.000000 I0.048959 J-0.107042
G03 X33.663865 Y76.843335 Z-1.000000 I0.043357 J-0.050403
G03 X33.652796 Y76.816480 Z-1.000000 I0.065879 J-0.042862
G03 X33.654193 Y76.787270 Z-1.000000 I0.057100 J-0.011909
G03 X33.664516 Y76.765680 Z-1.000000 I0.079151 J0.024584
G01 X33.671044 Y76.724268 Z-1.000000
G02 X33.639126 Y76.683680 Z-1.000000 I-0.065713 J0.018832
G02 X33.587748 Y76.676861 Z-1.000000 I-0.034075 J0.059780
G02 X33.525845 Y76.720780 Z-1.000000 I0.026884 J0.103478
G03 X33.469749 Y76.772942 Z-1.000000 I-0.139308 J-0.093571
G03 X33.389126 Y76.804780 Z-1.000000 I-0.151103 J-0.264636
G03 X33.301084 Y76.817787 Z-1.000000 I-0.118828 J-0.499852
G03 X33.178189 Y76.818480 Z-1.000000 I-0.067820 J-1.129828
G03 X32.933172 Y76.790105 Z-1.000000 I0.090147 J-1.850474
G03 X32.541470 Y76.703240 Z-1.000000 I0.999410 J-5.433233
G03 X31.762529 Y76.462605 Z-1.000000 I2.283608 J-8.773143
G03 X30.551236 Y75.984500 Z-1.000000 I7.022203 J-19.564423
G03 X30.058469 Y75.759314 Z-1.000000 I5.021211 J-11.639464
G03 X29.846158 Y75.642700 Z-1.000000 I1.008642 J-2.087953
G03 X29.750554 Y75.575572 Z-1.000000 I0.529190 J-0.855320
G03 X29.701626 Y75.523560 Z-1.000000 I0.152795 J-0.192754
G03 X29.684133 Y75.490095 Z-1.000000 I0.122513 J-0.085345
G03 X29.680146 Y75.445460 Z-1.000000 I0.079991 J-0.029641
G01 X29.694464 Y75.419321 Z-1.000000
G03 X29.715306 Y75.400560 Z-1.000000 I0.833377 J0.904862
G02 X29.679990 Y75.398122 Z-1.000000 I-0.122533 J1.518179
G02 X29.625466 Y75.396560 Z-1.000000 I-0.054524 J0.950624
G03 X29.469982 Y75.374089 Z-1.000000 I0.000000 J-0.549167
G03 X29.244607 Y75.293050 Z-1.000000 I0.583617 J-1.976980
G03 X29.024837 Y75.187981 Z-1.000000 I1.119185 J-2.623344
G03 X28.793435 Y75.054770 Z-1.000000 I1.862587 J-3.503111
G03 X28.571967 Y74.905939 Z-1.000000 I1.966475 J-3.165401
G03 X28.408670 Y74.773520 Z-1.000000 I1.146764 J-1.581071
G03 X28.334626 Y74.701596 Z-1.000000 I0.983373 J-1.086424
G03 X28.283670 Y74.640700 Z-1.000000 I0.422137 J-0.405004
G03 X28.245319 Y74.574713 Z-1.000000 I0.301282 J-0.219243
G03 X28.230940 Y74.507890 Z-1.000000 I0.148088 J-0.066823
G02 X28.220101 Y74.460682 Z-1.000000 I-0.108220 J0.000000
G01 X28.211410 Y74.451290 Z-1.000000
G01 X28.197248 Y74.447233 Z-1.000000
G02 X28.131330 Y74.459290 Z-1.000000 I0.001985 J0.197074
G03 X28.039121 Y74.461612 Z-1.000000 I-0.049681 J-0.140847
G03 X27.926252 Y74.416290 Z-1.000000 I0.186297 J-0.627155
G03 X27.812637 Y74.350474 Z-1.000000 I0.549959 J-1.080337
G03 X27.650861 Y74.238550 Z-1.000000 I2.071392 J-3.166893
G03 X27.334159 Y73.989174 Z-1.000000 I3.317412 J-4.538825
G03 X26.910627 Y73.613550 Z-1.000000 I8.081575 J-9.538913
G03 X26.043724 Y72.745278 Z-1.000000 I10.972754 J-11.822352
G03 X25.529767 Y72.084250 Z-1.000000 I3.590745 J-3.322166
G03 X25.113103 Y71.386234 Z-1.000000 I9.214785 J-5.973909
G03 X24.877424 Y70.890890 Z-1.000000 I4.219259 J-2.311217
G02 X24.736665 Y70.580147 Z-1.000000 I-4.130247 J1.683641
G02 X24.670392 Y70.472930 Z-1.000000 I-0.626738 J0.313313
G02 X24.639388 Y70.438268 Z-1.000000 I-0.214640 J0.160792
G01 X24.637192 Y70.435830 Z-1.000000
G01 X24.635616 Y70.438616 Z-1.000000
G01 X24.633292 Y70.443830 Z-1.000000
G02 X24.611999 Y70.512689 Z-1.000000 I0.210620 J0.102849
G02 X24.584462 Y70.822740 Z-1.000000 I2.705680 J0.396555
G02 X24.582236 Y71.127630 Z-1.000000 I6.312127 J0.198534
G02 X24.598132 Y71.656720 Z-1.000000 I20.059371 J-0.337873
G02 X24.950310 Y73.773728 Z-1.000000 I8.837261 J-0.382340
G02 X25.488757 Y74.705550 Z-1.000000 I2.193834 J-0.646211
G03 X25.640920 Y74.879373 Z-1.000000 I-1.970888 J1.878809
G03 X25.719225 Y74.990700 Z-1.000000 I-0.834490 J0.670164
G03 X25.751732 Y75.050133 Z-1.000000 I-0.588102 J0.360269
G03 X25.770005 Y75.096170 Z-1.000000 I-0.303398 J0.147070
G03 X25.778945 Y75.143198 Z-1.000000 I-0.195400 J0.061508
G03 X25.770005 Y75.193870 Z-1.000000 I-0.105646 J0.007487
G03 X25.731402 Y75.233707 Z-1.000000 I-0.073696 J-0.032790
G03 X25.682115 Y75.244670 Z-1.000000 I-0.047923 J-0.099179
G03 X25.636144 Y75.237655 Z-1.000000 I0.002192 J-0.168488
G03 X25.582505 Y75.217370 Z-1.000000 I0.114441 J-0.383681
G03 X25.481690 Y75.159737 Z-1.000000 I0.283433 J-0.612796
G03 X25.307114 Y75.025960 Z-1.000000 I1.292962 J-1.868075
G02 X24.988259 Y74.775852 Z-1.000000 I-3.537872 J4.182022
G02 X24.625473 Y74.529870 Z-1.000000 I-3.985326 J5.487230
G03 X24.066798 Y74.040104 Z-1.000000 I1.274814 J-2.017701
G03 X23.342270 Y73.027910 Z-1.000000 I6.511356 J-5.426229
G03 X22.760466 Y71.925966 Z-1.000000 I8.588806 J-5.239280
G03 X22.381333 Y70.857990 Z-1.000000 I6.253564 J-2.821306
G03 X22.101433 Y68.867682 Z-1.000000 I8.203386 J-2.168492
G03 X22.297353 Y66.899010 Z-1.000000 I8.248083 J-0.173243
G03 X22.862492 Y65.224690 Z-1.000000 I8.139617 J1.814857
G03 X23.816885 Y63.600180 Z-1.000000 I8.613594 J3.967845
G02 X25.415256 Y61.364569 Z-1.000000 I-111.182049 J-81.179859
G02 X25.895010 Y60.580650 Z-1.000000 I-6.123136 J-4.286084
G02 X26.159100 Y59.811799 Z-1.000000 I-2.299250 J-1.219544
G02 X26.219228 Y59.084550 Z-1.000000 I-3.930553 J-0.691081
G02 X25.982660 Y57.989867 Z-1.000000 I-2.766873 J0.025036
G02 X25.184072 Y56.744710 Z-1.000000 I-4.419148 J1.955576
G03 X24.778493 Y56.220269 Z-1.000000 I3.785030 J-3.346226
G03 X24.488760 Y55.709550 Z-1.000000 I3.182680 J-2.143086
G03 X24.146990 Y54.949771 Z-1.000000 I22.554938 J-10.602605
G03 X23.795400 Y54.107990 Z-1.000000 I40.499253 J-17.409799
G03 X23.458501 Y53.241873 Z-1.000000 I30.051217 J-12.187802
G03 X23.375478 Y52.959550 Z-1.000000 I1.953750 J-0.727908
G03 X23.185217 Y51.696040 Z-1.000000 I9.474554 J-2.072774
G03 X23.141103 Y50.156820 Z-1.000000 I13.985741 J-1.171069
G03 X23.598528 Y47.506343 Z-1.000000 I9.325826 J0.244761
G03 X24.555166 Y45.830650 Z-1.000000 I4.545026 J1.483799
G02 X24.737184 Y45.602430 Z-1.000000 I-2.250772 J-1.981806
G02 X24.824697 Y45.459550 Z-1.000000 I-0.906967 J-0.653753
G02 X24.873741 Y45.308156 Z-1.000000 I-0.440499 J-0.226339
G02 X24.867667 Y45.258380 Z-1.000000 I-0.091813 J-0.014056
G02 X24.844731 Y45.208802 Z-1.000000 I-0.650667 J0.270917
G02 X24.832507 Y45.188080 Z-1.000000 I-0.176010 J0.089864
G02 X24.821105 Y45.200128 Z-1.000000 I0.145308 J0.148941
G02 X24.797347 Y45.231080 Z-1.000000 I0.232066 J0.202720
G03 X24.770645 Y45.258456 Z-1.000000 I-0.088045 J-0.059164
G03 X24.732897 Y45.274080 Z-1.000000 I-0.053129 J-0.074953
G03 X24.692980 Y45.272472 Z-1.000000 I-0.015779 J-0.104573
G03 X24.660627 Y45.260380 Z-1.000000 I0.031022 J-0.132326
G03 X24.607717 Y45.222558 Z-1.000000 I0.099507 J-0.195121
G03 X24.549298 Y45.158810 Z-1.000000 I0.507200 J-0.523446
G03 X24.443635 Y45.007935 Z-1.000000 I1.005824 J-0.816854
G03 X24.305158 Y44.756470 Z-1.000000 I3.378611 J-2.024391
G03 X24.057290 Y44.188075 Z-1.000000 I4.972979 J-2.506885
G03 X23.926252 Y43.678340 Z-1.000000 I2.378662 J-0.883193
G03 X23.976825 Y42.776814 Z-1.000000 I2.206638 J-0.328396
G03 X24.525861 Y41.397090 Z-1.000000 I6.048769 J1.607898
G03 X26.050652 Y39.681106 Z-1.000000 I4.446020 J2.415207
G03 X28.811017 Y38.358030 Z-1.000000 I5.268412 J7.450568
G03 X32.334574 Y37.855132 Z-1.000000 I3.590310 J12.560170
G03 X37.502424 Y38.309230 Z-1.000000 I0.143106 J28.004728
G02 X38.786953 Y38.511958 Z-1.000000 I4.892740 J-26.830599
G02 X39.439924 Y38.561190 Z-1.000000 I0.754614 J-5.653696
G02 X40.062781 Y38.505468 Z-1.000000 I0.051773 J-2.930256
G02 X40.494611 Y38.365870 Z-1.000000 I-0.380247 J-1.913961
G03 X41.041574 Y38.170177 Z-1.000000 I1.412066 J3.084496
G03 X41.992658 Y37.967440 Z-1.000000 I2.592664 J9.830537
G01 X41.994658 Y37.967440 Z-1.000000
G01 X42.023958 Y37.959440 Z-1.000000
G01 X42.027858 Y37.965440 Z-1.000000
G03 X45.445138 Y37.769291 Z-1.000000 I2.671050 J16.668889
G03 X48.414577 Y38.252550 Z-1.000000 I-0.569082 J12.861443
G03 X49.983692 Y38.775367 Z-1.000000 I-5.262523 J18.410338
G03 X51.680202 Y39.500600 Z-1.000000 I-8.409604 J22.019168
G03 X53.361074 Y40.481663 Z-1.000000 I-4.903277 J10.331326
G03 X55.393092 Y42.113880 Z-1.000000 I-11.879577 J16.870392
G03 X58.268427 Y45.318651 Z-1.000000 I-14.596153 J15.988001
G03 X59.660671 Y47.951770 Z-1.000000 I-8.301975 J6.074242
G03 X60.071055 Y49.387916 Z-1.000000 I-11.221969 J3.983423
G03 X60.180202 Y50.217400 Z-1.000000 I-4.827645 J1.057168
G03 X60.181338 Y50.416971 Z-1.000000 I-2.487091 J0.113950
G03 X60.168482 Y50.557240 Z-1.000000 I-1.235478 J-0.042513
G03 X60.135797 Y50.689851 Z-1.000000 I-0.727803 J-0.109053
G03 X60.086452 Y50.774040 Z-1.000000 I-0.237174 J-0.082456
G03 X60.001868 Y50.823114 Z-1.000000 I-0.116445 J-0.103274
G03 X59.896999 Y50.813140 Z-1.000000 I-0.036370 J-0.173902
G03 X59.807413 Y50.757783 Z-1.000000 I0.129258 J-0.309347
G03 X59.686061 Y50.633450 Z-1.000000 I0.657667 J-0.763290
G03 X59.492189 Y50.371425 Z-1.000000 I2.518262 J-2.065992
G03 X59.258327 Y49.992830 Z-1.000000 I5.513252 J-3.667122
G02 X58.950380 Y49.540340 Z-1.000000 I-3.055794 J1.748623
G02 X58.457546 Y48.992830 Z-1.000000 I-5.000437 J4.005510
G03 X58.308726 Y48.832877 Z-1.000000 I1.870068 J-1.889119
G03 X58.217311 Y48.713530 Z-1.000000 I1.045799 J-0.895720
G03 X58.178930 Y48.651793 Z-1.000000 I0.692739 J-0.473457
G03 X58.156761 Y48.604160 Z-1.000000 I0.296544 J-0.166994
G03 X58.152178 Y48.588461 Z-1.000000 I0.109142 J-0.040383
G03 X58.148961 Y48.572960 Z-1.000000 I0.848279 J-0.184114
G03 X58.128942 Y48.577050 Z-1.000000 I-0.094967 J-0.413819
G02 X58.100131 Y48.584660 Z-1.000000 I0.032590 J0.181722
G03 X58.008580 Y48.607632 Z-1.000000 I-0.167709 J-0.474466
G03 X57.936068 Y48.608060 Z-1.000000 I-0.037712 J-0.246326
G03 X57.901312 Y48.599752 Z-1.000000 I0.019360 J-0.157845
G03 X57.867708 Y48.580760 Z-1.000000 I0.039465 J-0.109052
G03 X57.841255 Y48.548815 Z-1.000000 I0.066573 J-0.082054
G03 X57.830598 Y48.506560 Z-1.000000 I0.078446 J-0.042255
G01 X57.825801 Y48.507917 Z-1.000000
G02 X57.811068 Y48.488960 Z-1.000000 I-0.093735 J0.057647
G02 X57.780547 Y48.460273 Z-1.000000 I-0.309031 J0.298207
G02 X57.723178 Y48.414760 Z-1.000000 I-0.678934 J0.796884
G02 X57.600075 Y48.331780 Z-1.000000 I-1.037013 J1.405627
G02 X57.418490 Y48.229220 Z-1.000000 I-1.496377 J2.437348
G03 X57.038050 Y48.005379 Z-1.000000 I1.874337 J-3.620846
G03 X56.840365 Y47.850310 Z-1.000000 I0.878215 J-1.323103
G03 X56.762139 Y47.766776 Z-1.000000 I0.523496 J-0.568625
G03 X56.727084 Y47.692110 Z-1.000000 I0.135329 J-0.109098
G03 X56.729666 Y47.644728 Z-1.000000 I0.092141 J-0.018740
G03 X56.760284 Y47.602310 Z-1.000000 I0.080245 J0.025663
G03 X56.803228 Y47.583487 Z-1.000000 I0.063859 J0.087295
G03 X56.850124 Y47.578910 Z-1.000000 I0.046896 J0.237939
G02 X56.873061 Y47.574353 Z-1.000000 I0.000000 J-0.059999
G01 X56.873564 Y47.574910 Z-1.000000
G01 X56.872727 Y47.574772 Z-1.000000
G02 X56.861844 Y47.547610 Z-1.000000 I-0.070611 J0.012531
G02 X56.843265 Y47.524110 Z-1.000000 I-0.159528 J0.107029
G01 X56.836454 Y47.518310 Z-1.000000
G02 X56.833112 Y47.516446 Z-1.000000 I-0.031169 J0.051949
G01 X56.832554 Y47.516310 Z-1.000000
G01 X56.830127 Y47.517307 Z-1.000000
G02 X56.773964 Y47.574910 Z-1.000000 I0.148130 J0.200609
G03 X56.711299 Y47.645596 Z-1.000000 I-0.339063 J-0.237468
G03 X56.641151 Y47.678420 Z-1.000000 I-0.089384 J-0.099653
G03 X56.597872 Y47.676706 Z-1.000000 I-0.016934 J-0.119683
G03 X56.559121 Y47.660820 Z-1.000000 I0.027079 J-0.121261
G03 X56.527328 Y47.635653 Z-1.000000 I0.090819 J-0.147392
G03 X56.498571 Y47.602220 Z-1.000000 I0.212787 J-0.212115
G02 X56.470201 Y47.571270 Z-1.000000 I-0.159983 J0.118171
G02 X56.375524 Y47.496750 Z-1.000000 I-0.708592 J0.802853
G02 X56.278078 Y47.434163 Z-1.000000 I-0.830589 J1.186049
G02 X56.172399 Y47.377610 Z-1.000000 I-0.767284 J1.306783
G03 X56.062330 Y47.307464 Z-1.000000 I0.245541 J-0.506719
G03 X55.992712 Y47.235040 Z-1.000000 I0.261514 J-0.321054
G03 X55.966807 Y47.194266 Z-1.000000 I0.245567 J-0.184633
G03 X55.951692 Y47.151040 Z-1.000000 I0.134563 J-0.071308
G03 X55.953797 Y47.121266 Z-1.000000 I0.058511 J-0.010825
G02 X55.963412 Y47.090540 Z-1.000000 I-0.732504 J-0.246086
G01 X55.957480 Y47.091459 Z-1.000000
G01 X55.951692 Y47.092540 Z-1.000000
G03 X55.929679 Y47.089053 Z-1.000000 I0.007194 J-0.116628
G02 X55.902862 Y47.082540 Z-1.000000 I-0.239628 J0.928259
G03 X55.850951 Y47.069553 Z-1.000000 I0.279694 J-1.228205
G03 X55.770050 Y47.045440 Z-1.000000 I0.477361 J-1.749366
G03 X55.607526 Y46.989329 Z-1.000000 I1.358527 J-4.198391
G03 X55.340362 Y46.887240 Z-1.000000 I3.767412 J-10.259799
G03 X54.798874 Y46.663297 Z-1.000000 I7.674967 J-19.324488
G03 X54.020050 Y46.316930 Z-1.000000 I13.778389 J-32.030205
G02 X51.458278 Y45.338692 Z-1.000000 I-8.691880 J18.918512
G02 X48.897003 Y44.740750 Z-1.000000 I-5.574190 J18.092384
G02 X48.100588 Y44.654149 Z-1.000000 I-1.239286 J7.691599
G02 X46.924346 Y44.617710 Z-1.000000 I-1.291250 J22.678389
G02 X46.376089 Y44.622641 Z-1.000000 I-0.105133 J18.791827
G02 X45.941925 Y44.641110 Z-1.000000 I0.270660 J11.475009
G02 X45.500081 Y44.682816 Z-1.000000 I0.424154 J6.855003
G02 X45.320831 Y44.721210 Z-1.000000 I0.136805 J1.076319
G02 X44.411098 Y45.438065 Z-1.000000 I0.463074 J1.523351
G02 X44.266143 Y46.512230 Z-1.000000 I1.208450 J0.709939
G03 X44.366639 Y47.158198 Z-1.000000 I-2.914501 J0.784225
G03 X44.385284 Y48.609890 Z-1.000000 I-21.990391 J1.008396
G03 X44.311299 Y50.055102 Z-1.000000 I-23.329372 J-0.469810
G03 X44.178253 Y50.906760 Z-1.000000 I-5.905079 J-0.486268
G03 X43.972718 Y51.633155 Z-1.000000 I-7.667005 J-1.777118
G03 X43.717315 Y52.309100 Z-1.000000 I-9.126151 J-3.062056
G03 X43.575946 Y52.623341 Z-1.000000 I-6.636618 J-2.796719
G03 X43.467315 Y52.826680 Z-1.000000 I-2.364166 J-1.132339
G03 X43.406206 Y52.921751 Z-1.000000 I-1.315175 J-0.778179
G03 X43.357940 Y52.982930 Z-1.000000 I-0.535946 J-0.373198
G03 X43.305093 Y53.031287 Z-1.000000 I-0.263187 J-0.234568
G03 X43.238800 Y53.053230 Z-1.000000 I-0.066293 J-0.089170
G01 X43.238918 Y53.053565 Z-1.000000
G02 X43.219270 Y53.076630 Z-1.000000 I0.049777 J0.062303
G02 X43.205524 Y53.110846 Z-1.000000 I0.131041 J0.072514
G02 X43.197790 Y53.170330 Z-1.000000 I0.224884 J0.059484
G03 X43.167507 Y53.308055 Z-1.000000 I-0.328325 J-0.000000
G03 X43.037634 Y53.549240 Z-1.000000 I-2.036606 J-0.941111
G03 X42.877962 Y53.786877 Z-1.000000 I-3.325328 J-2.061869
G03 X42.627478 Y54.115640 Z-1.000000 I-7.316641 J-5.314748
G03 X42.073398 Y54.762768 Z-1.000000 I-9.742201 J-7.780644
G03 X41.365759 Y55.482830 Z-1.000000 I-10.805230 J-9.911059
G03 X40.372202 Y56.291526 Z-1.000000 I-5.773796 J-6.078951
G03 X39.572790 Y56.736740 Z-1.000000 I-2.650921 J-3.819602
G03 X38.724197 Y56.954393 Z-1.000000 I-1.105032 J-2.545250
G03 X38.201696 Y56.836340 Z-1.000000 I-0.079955 J-0.861441
G03 X38.132274 Y56.789603 Z-1.000000 I0.382341 J-0.642843
G03 X38.092321 Y56.748440 Z-1.000000 I0.114565 J-0.151170
G03 X38.084260 Y56.735935 Z-1.000000 I0.095303 J-0.070286
G03 X38.076691 Y56.717240 Z-1.000000 I0.070582 J-0.039456
G03 X38.074372 Y56.695744 Z-1.000000 I0.069133 J-0.018331
G03 X38.082591 Y56.666440 Z-1.000000 I0.066920 J0.002964
G01 X38.092118 Y56.657093 Z-1.000000
G02 X38.102121 Y56.650840 Z-1.000000 I-0.030504 J-0.059924
G02 X38.094469 Y56.635976 Z-1.000000 I-0.494381 J0.245113
G02 X38.078681 Y56.609840 Z-1.000000 I-0.255061 J0.136236
G02 X38.010024 Y56.518782 Z-1.000000 I-0.947925 J0.643312
G02 X37.871650 Y56.363740 Z-1.000000 I-2.431022 J2.030406
G03 X37.596110 Y55.980701 Z-1.000000 I1.242594 J-1.184489
G03 X37.248603 Y55.215300 Z-1.000000 I6.246248 J-3.297503
G03 X36.984994 Y54.416659 Z-1.000000 I8.209130 J-3.152431
G03 X36.815010 Y53.621550 Z-1.000000 I6.493593 J-1.803968
G03 X36.741126 Y51.999624 Z-1.000000 I7.677055 J-1.162359
G03 X37.000556 Y49.877410 Z-1.000000 I17.107445 J1.014331
G03 X37.533011 Y47.804623 Z-1.000000 I15.623368 J2.908533
G03 X38.121650 Y46.613740 Z-1.000000 I4.512298 J1.489453
G02 X38.252268 Y46.388362 Z-1.000000 I-1.454740 J-0.993635
G02 X38.350166 Y46.141080 Z-1.000000 I-1.612424 J-0.781372
G02 X38.361950 Y46.098495 Z-1.000000 I-0.649208 J-0.202568
G03 X38.369696 Y46.068780 Z-1.000000 I0.850951 J0.205959
G03 X38.360861 Y46.074693 Z-1.000000 I-0.306244 J-0.447990
G02 X38.350166 Y46.082480 Z-1.000000 I0.073607 J0.112339
G02 X38.275640 Y46.143262 Z-1.000000 I1.730298 J2.197607
G02 X38.135322 Y46.262170 Z-1.000000 I36.561693 J43.287312
G03 X34.614837 Y48.042243 Z-1.000000 I-5.456670 J-6.420459
G03 X30.086494 Y48.166470 Z-1.000000 I-2.563761 J-10.858573
G03 X27.245685 Y47.310085 Z-1.000000 I2.261168 J-12.640749
G03 X25.498603 Y46.174280 Z-1.000000 I2.477490 J-5.722417
G01 X25.223213 Y45.918420 Z-1.000000
G01 X25.137273 Y46.125450 Z-1.000000
G02 X25.091613 Y46.242935 Z-1.000000 I2.790759 J1.152217
G02 X25.057193 Y46.346150 Z-1.000000 I1.831112 J0.667993
G02 X25.027776 Y46.464115 Z-1.000000 I1.174826 J0.355618
G02 X25.025943 Y46.482870 Z-1.000000 I0.095037 J0.018755
G03 X25.021404 Y46.524809 Z-1.000000 I-0.196034 J0.000000
G03 X25.006413 Y46.584430 Z-1.000000 I-0.977155 J-0.214004
G03 X24.986165 Y46.650827 Z-1.000000 I-1.742653 J-0.495135
G03 X24.953683 Y46.748500 Z-1.000000 I-8.285956 J-2.701353
G03 X24.883192 Y46.946698 Z-1.000000 I-6.842121 J-2.321823
G03 X24.783762 Y47.205530 Z-1.000000 I-12.370236 J-4.603508
G02 X23.933000 Y51.422647 Z-1.000000 I11.281674 J4.470342
G02 X24.621652 Y54.787560 Z-1.000000 I7.772524 J0.162226
G03 X24.916663 Y55.450475 Z-1.000000 I-56.029999 J25.331637
G03 X25.049386 Y55.768030 Z-1.000000 I-9.316865 J4.080517
G02 X25.106114 Y55.898355 Z-1.000000 I2.091706 J-0.832974
G02 X25.158762 Y56.000450 Z-1.000000 I1.527554 J-0.723099
G02 X25.187028 Y56.049219 Z-1.000000 I1.647119 J-0.922079
G02 X25.207592 Y56.080550 Z-1.000000 I0.395786 J-0.237358
G02 X25.233206 Y56.111484 Z-1.000000 I0.232904 J-0.166778
G01 X25.232982 Y56.111750 Z-1.000000
G03 X25.276684 Y56.147123 Z-1.000000 I-0.154323 J0.235343
G03 X25.336498 Y56.211350 Z-1.000000 I-0.763593 J0.771093
G03 X25.393438 Y56.280995 Z-1.000000 I-1.425651 J1.223684
G03 X25.469310 Y56.381270 Z-1.000000 I-3.623577 J2.820567
G03 X25.618913 Y56.592417 Z-1.000000 I-5.879395 J4.324273
G03 X25.807201 Y56.877360 Z-1.000000 I-9.550201 J6.515376
G03 X26.189173 Y57.507428 Z-1.000000 I-12.855335 J8.224220
G03 X26.410717 Y57.943770 Z-1.000000 I-4.160159 J2.386655
G03 X26.614408 Y58.642480 Z-1.000000 I-2.467831 J1.098477
G03 X26.690014 Y59.637130 Z-1.000000 I-6.793645 J1.016604
G03 X26.615995 Y60.630234 Z-1.000000 I-6.423650 J0.020540
G03 X26.418529 Y61.185960 Z-1.000000 I-1.547995 J-0.237104
G02 X26.185328 Y61.610744 Z-1.000000 I7.265796 J4.265241
G02 X26.004467 Y61.994550 Z-1.000000 I5.733876 J2.936487
G03 X25.921043 Y62.162225 Z-1.000000 I-1.586422 J-0.684708
G03 X25.842357 Y62.283610 Z-1.000000 I-1.062662 J-0.602660
G03 X25.798667 Y62.338673 Z-1.000000 I-0.774441 J-0.569622
G03 X25.760327 Y62.377310 Z-1.000000 I-0.278936 J-0.238449
G03 X25.717698 Y62.407608 Z-1.000000 I-0.173551 J-0.199043
G03 X25.662667 Y62.422210 Z-1.000000 I-0.055031 J-0.096400
G01 X25.645672 Y62.426644 Z-1.000000
G02 X25.621647 Y62.447610 Z-1.000000 I0.037898 J0.067677
G02 X25.605716 Y62.479209 Z-1.000000 I0.083420 J0.061873
G02 X25.598207 Y62.529610 Z-1.000000 I0.165400 J0.050401
G03 X25.583340 Y62.625973 Z-1.000000 I-0.319732 J0.000000
G03 X25.523987 Y62.791330 Z-1.000000 I-2.177891 J-0.688400
G03 X25.450071 Y62.959969 Z-1.000000 I-2.846162 J-1.146984
G03 X25.352112 Y63.150700 Z-1.000000 I-3.088141 J-1.465538
G03 X25.211651 Y63.382786 Z-1.000000 I-3.088977 J-1.710933
G03 X25.129456 Y63.474920 Z-1.000000 I-0.354852 J-0.233841
G03 X25.074025 Y63.506987 Z-1.000000 I-0.119824 J-0.143188
G03 X25.012268 Y63.512020 Z-1.000000 I-0.039944 J-0.108712
G03 X24.959334 Y63.486333 Z-1.000000 I0.022254 J-0.113247
G03 X24.920468 Y63.443620 Z-1.000000 I0.153321 J-0.178549
G02 X24.917114 Y63.481104 Z-1.000000 I1.314285 J0.136483
G02 X24.914568 Y63.543220 Z-1.000000 I0.911189 J0.068461
G03 X24.848258 Y63.835406 Z-1.000000 I-0.695347 J-0.004188
G03 X24.635271 Y64.158450 Z-1.000000 I-1.231605 J-0.580278
G02 X24.373500 Y64.484141 Z-1.000000 I3.228069 J2.862570
G02 X24.125505 Y64.853770 Z-1.000000 I4.785623 J3.478827
G02 X24.018004 Y65.037375 Z-1.000000 I3.837596 J2.370184
G02 X23.947771 Y65.174080 Z-1.000000 I2.133507 J1.182501
G02 X23.888436 Y65.327280 Z-1.000000 I1.011794 J0.479959
G02 X23.883321 Y65.361580 Z-1.000000 I0.112436 J0.034300
G03 X23.868824 Y65.441284 Z-1.000000 I-0.226359 J0.000000
G03 X23.828631 Y65.523690 Z-1.000000 I-0.457277 J-0.172030
G03 X23.773306 Y65.599067 Z-1.000000 I-0.467201 J-0.284922
G03 X23.703631 Y65.664310 Z-1.000000 I-0.361493 J-0.316225
G02 X23.592932 Y65.785656 Z-1.000000 I0.280435 J0.366995
G02 X23.506366 Y65.988530 Z-1.000000 I0.595525 J0.374016
G03 X23.439904 Y66.229636 Z-1.000000 I-5.242535 J-1.315411
G03 X23.197772 Y67.015870 Z-1.000000 I-59.359902 J-17.850347
G02 X23.027572 Y67.808048 Z-1.000000 I4.128050 J1.301286
G02 X22.953631 Y69.084230 Z-1.000000 I10.581319 J1.253309
G02 X23.173037 Y70.857327 Z-1.000000 I7.404064 J-0.016070
G02 X23.844256 Y72.658450 Z-1.000000 I8.295263 J-2.065736
G02 X24.097315 Y73.122390 Z-1.000000 I7.866181 J-3.989671
G02 X24.287616 Y73.424080 Z-1.000000 I4.604825 J-2.693784
G02 X24.508780 Y73.713664 Z-1.000000 I2.690142 J-1.825301
G02 X24.602069 Y73.801030 Z-1.000000 I0.442648 J-0.379165
G02 X24.616572 Y73.810055 Z-1.000000 I0.067484 J-0.092285
G03 X24.625509 Y73.814730 Z-1.000000 I-15.770324 J30.155857
G02 X24.626055 Y73.804802 Z-1.000000 I-0.153679 J-0.013428
G02 X24.625509 Y73.787430 Z-1.000000 I-0.160680 J-0.003646
G02 X24.600077 Y73.658250 Z-1.000000 I-0.593407 J0.049731
G02 X24.436056 Y73.221020 Z-1.000000 I-4.146633 J1.306177
G03 X24.309301 Y72.870382 Z-1.000000 I2.600122 J-1.138173
G03 X24.223166 Y72.431960 Z-1.000000 I2.465598 J-0.712076
G03 X24.192545 Y71.962305 Z-1.000000 I5.610394 J-0.601620
G03 X24.178246 Y70.842120 Z-1.000000 I52.702603 J-1.232914
G03 X24.185171 Y69.748812 Z-1.000000 I64.803854 J-0.136193
G03 X24.205586 Y69.371410 Z-1.000000 I4.812945 J0.071092
G03 X24.232655 Y69.184633 Z-1.000000 I1.859961 J0.174207
G03 X24.262226 Y69.094070 Z-1.000000 I0.386713 J0.076162
G03 X24.287428 Y69.052161 Z-1.000000 I0.211845 J0.098861
G03 X24.318866 Y69.021770 Z-1.000000 I0.112250 J0.084662
G03 X24.360415 Y69.001995 Z-1.000000 I0.079038 J0.112526
G03 X24.400896 Y68.996370 Z-1.000000 I0.040481 J0.142861
G03 X24.505101 Y69.028595 Z-1.000000 I0.000000 J0.184591
G03 X24.582537 Y69.117470 Z-1.000000 I-0.132299 J0.193445
G03 X24.619565 Y69.229827 Z-1.000000 I-0.368349 J0.183672
G03 X24.639177 Y69.418250 Z-1.000000 I-1.325668 J0.233214
G02 X24.686715 Y69.695299 Z-1.000000 I1.033176 J-0.034676
G02 X24.881365 Y70.191690 Z-1.000000 I3.774643 J-1.193794
G02 X25.128282 Y70.660406 Z-1.000000 I5.475338 J-2.584985
G02 X25.484880 Y71.228800 Z-1.000000 I9.142646 J-5.339836
G02 X26.331267 Y72.348841 Z-1.000000 I10.571063 J-7.108476
G02 X27.211443 Y73.234660 Z-1.000000 I5.968195 J-5.049977
G02 X29.602197 Y74.866209 Z-1.000000 I8.594950 J-10.027026
G02 X32.223162 Y75.902620 Z-1.000000 I5.898134 J-11.083439
G02 X36.345075 Y76.207472 Z-1.000000 I2.852410 J-10.548823
G02 X39.771990 Y75.021760 Z-1.000000 I-0.979799 J-8.376837
G02 X40.337770 Y74.648450 Z-1.000000 I-5.294142 J-8.639068
G02 X40.729021 Y74.349890 Z-1.000000 I-4.052503 J-5.716290
G02 X40.883712 Y74.212988 Z-1.000000 I-1.742335 J-2.124584
G02 X40.959490 Y74.135050 Z-1.000000 I-1.004011 J-1.051991
G02 X40.918070 Y74.151817 Z-1.000000 I1.706553 J4.275287
G02 X40.861830 Y74.176050 Z-1.000000 I0.670185 J1.632746
G02 X40.707571 Y74.250017 Z-1.000000 I1.586111 J3.505689
G02 X40.504409 Y74.355740 Z-1.000000 I4.942545 J9.745880
G03 X38.187467 Y74.972417 Z-1.000000 I-2.474302 J-4.635421
G03 X35.389174 Y74.513940 Z-1.000000 I-0.222110 J-7.413216
G03 X35.066844 Y74.381110 Z-1.000000 I1.671606 J-4.513896
G03 X34.924330 Y74.297150 Z-1.000000 I0.325992 J-0.716268
G03 X34.862626 Y74.240781 Z-1.000000 I0.244307 J-0.329385
G03 X34.826670 Y74.183860 Z-1.000000 I0.152851 J-0.136370
G03 X34.819827 Y74.139086 Z-1.000000 I0.085095 J-0.035916
G03 X34.824670 Y74.094060 Z-1.000000 I2.029856 J0.195569
G02 X34.799309 Y74.111526 Z-1.000000 I0.088588 J0.155774
G03 X34.771940 Y74.123360 Z-1.000000 I-0.034182 J-0.041489
G03 X34.717877 Y74.123748 Z-1.000000 I-0.028530 J-0.208554
G03 X34.650846 Y74.111660 Z-1.000000 I0.072742 J-0.595263
G03 X34.521646 Y74.069157 Z-1.000000 I0.194803 J-0.809785
G03 X34.305143 Y73.967130 Z-1.000000 I1.140587 J-2.701063
G03 X33.887467 Y73.726376 Z-1.000000 I2.658458 J-5.094751
G03 X33.064909 Y73.181970 Z-1.000000 I13.332370 J-21.037861
G03 X33.030669 Y73.135943 Z-1.000000 I0.050647 J-0.073426
G03 X33.027799 Y73.086270 Z-1.000000 I0.094035 J-0.030353
G03 X33.044967 Y73.041430 Z-1.000000 I0.140090 J0.027931
G03 X33.076629 Y73.002270 Z-1.000000 I0.149549 J0.088535
G03 X33.127486 Y72.980208 Z-1.000000 I0.057125 J0.062036
G03 X33.170379 Y72.980770 Z-1.000000 I0.018244 J0.244752
G03 X33.215489 Y72.988109 Z-1.000000 I-0.034789 J0.356126
G03 X33.271942 Y73.004170 Z-1.000000 I-0.126122 J0.550562
G03 X33.384525 Y73.050061 Z-1.000000 I-0.339411 J0.993704
G03 X33.527801 Y73.127210 Z-1.000000 I-0.715602 J1.500589
G02 X35.481978 Y73.645104 Z-1.000000 I1.864486 J-3.089486
G02 X38.518035 Y72.994400 Z-1.000000 I-0.208362 J-8.380352
G02 X42.775902 Y70.026520 Z-1.000000 I-4.788173 J-11.407562
G02 X45.404754 Y65.613540 Z-1.000000 I-8.864076 J-8.269915
G02 X46.000268 Y63.654631 Z-1.000000 I-33.869975 J-11.366548
G02 X46.197723 Y62.761980 Z-1.000000 I-9.045288 J-2.468986
G02 X46.227700 Y62.544827 Z-1.000000 I-3.407994 J-0.581111
G02 X46.234833 Y62.427990 Z-1.000000 I-1.308359 J-0.138508
G02 X46.233828 Y62.379507 Z-1.000000 I-0.651764 J-0.010746
G02 X46.230933 Y62.353790 Z-1.000000 I-0.238503 J0.013830
G02 X46.216689 Y62.367724 Z-1.000000 I0.309228 J0.330353
G02 X46.191873 Y62.396790 Z-1.000000 I0.201958 J0.197555
G02 X46.128927 Y62.492721 Z-1.000000 I0.788940 J0.586288
G02 X46.008279 Y62.717110 Z-1.000000 I3.811963 J2.194218
G03 X45.184806 Y63.964258 Z-1.000000 I-5.617674 J-2.813825
G03 X43.771951 Y65.365540 Z-1.000000 I-8.764910 J-7.424399
G03 X43.193462 Y65.800751 Z-1.000000 I-4.674472 J-5.611301
G03 X42.549294 Y66.207340 Z-1.000000 I-6.600026 J-9.742994
G03 X42.240692 Y66.377664 Z-1.000000 I-3.385775 J-5.769772
G03 X42.066873 Y66.457340 Z-1.000000 I-0.913319 J-1.763048
G03 X41.988210 Y66.485633 Z-1.000000 I-0.423582 J-1.054189
G03 X41.922341 Y66.490540 Z-1.000000 I-0.043222 J-0.135648
G03 X41.904474 Y66.485862 Z-1.000000 I0.015283 J-0.094829
G03 X41.881321 Y66.471040 Z-1.000000 I0.022026 J-0.059901
G03 X41.865598 Y66.445130 Z-1.000000 I0.044495 J-0.044728
G03 X41.861791 Y66.420240 Z-1.000000 I0.079823 J-0.024944
G03 X41.870697 Y66.380807 Z-1.000000 I0.091547 J-0.000047
G03 X41.887181 Y66.351840 Z-1.000000 I0.207301 J0.098798
G02 X41.895917 Y66.334432 Z-1.000000 I-0.063816 J-0.042920
G01 X41.896981 Y66.330340 Z-1.000000
G01 X41.894990 Y66.329208 Z-1.000000
G02 X41.836431 Y66.316640 Z-1.000000 I-0.058559 J0.130135
G02 X41.741510 Y66.352894 Z-1.000000 I-0.000000 J0.142387
G02 X41.711431 Y66.420150 Z-1.000000 I0.060151 J0.067256
G03 X41.682852 Y66.515046 Z-1.000000 I-0.171839 J-0.000000
G03 X41.607915 Y66.584210 Z-1.000000 I-0.178544 J-0.118269
G03 X41.511235 Y66.619449 Z-1.000000 I-0.160430 J-0.289907
G03 X41.371587 Y66.633010 Z-1.000000 I-0.139648 J-0.712245
G03 X41.246775 Y66.627928 Z-1.000000 I-0.000000 J-1.535145
G03 X41.158697 Y66.615410 Z-1.000000 I0.060529 J-0.742028
G03 X41.117013 Y66.605582 Z-1.000000 I0.185229 J-0.878910
G03 X41.084477 Y66.593910 Z-1.000000 I0.049100 J-0.188056
G03 X41.069640 Y66.585565 Z-1.000000 I0.048217 J-0.103088
G03 X41.053227 Y66.572410 Z-1.000000 I0.065976 J-0.099132
G03 X41.039925 Y66.554742 Z-1.000000 I0.047619 J-0.049693
G03 X41.031747 Y66.521610 Z-1.000000 I0.063027 J-0.033132
G02 X41.031746 Y66.519970 Z-1.000000 I-1.652683 J-0.000000
G01 X41.033747 Y66.506010 Z-1.000000
G01 X41.035845 Y66.500328 Z-1.000000
G02 X41.037647 Y66.496010 Z-1.000000 I-0.048299 J-0.022688
G02 X41.040737 Y66.488254 Z-1.000000 I-0.072930 J-0.033548
G01 X41.043547 Y66.482310 Z-1.000000
G03 X41.050490 Y66.472249 Z-1.000000 I0.225566 J0.148229
G03 X41.059177 Y66.460810 Z-1.000000 I0.254674 J0.184392
G03 X41.077781 Y66.438975 Z-1.000000 I0.325414 J0.258417
G03 X41.108007 Y66.406110 Z-1.000000 I4.841538 J4.422453
G03 X41.171519 Y66.339216 Z-1.000000 I2.712757 J2.512038
G03 X41.279882 Y66.230330 Z-1.000000 I4.986545 J4.854197
G03 X41.506142 Y66.012634 Z-1.000000 I10.284059 J10.462163
G03 X41.842382 Y65.701030 Z-1.000000 I19.587354 J20.798801
G02 X42.552355 Y64.926773 Z-1.000000 I-3.968965 J-4.352075
G02 X43.135351 Y64.009630 Z-1.000000 I-4.991261 J-3.816640
G02 X43.345069 Y63.586215 Z-1.000000 I-10.610104 J-5.518846
G02 X43.520117 Y63.195170 Z-1.000000 I-10.075772 J-4.745032
G02 X43.680985 Y62.784502 Z-1.000000 I-7.172035 J-3.046288
G02 X43.727148 Y62.619000 Z-1.000000 I-1.108003 J-0.398243
G01 X43.775978 Y62.370950 Z-1.000000
G01 X43.033791 Y63.099470 Z-1.000000
G03 X42.107172 Y63.883864 Z-1.000000 I-5.876842 J-6.002910
G03 X41.315041 Y64.351420 Z-1.000000 I-2.800482 J-3.839772
G03 X39.120962 Y65.019047 Z-1.000000 I-3.450698 J-7.401213
G03 X37.500587 Y64.941270 Z-1.000000 I-0.620738 J-3.985805
G03 X37.261322 Y64.860157 Z-1.000000 I0.409387 J-1.601050
G03 X37.104103 Y64.765480 Z-1.000000 I0.260567 J-0.610568
G03 X36.979798 Y64.630281 Z-1.000000 I0.395718 J-0.488575
G03 X36.863869 Y64.423690 Z-1.000000 I1.147286 J-0.779626
G03 X36.779082 Y64.233972 Z-1.000000 I16.869985 J-7.653213
G03 X36.736915 Y64.130720 Z-1.000000 I1.893348 J-0.833452
G03 X36.718892 Y64.079447 Z-1.000000 I1.145930 J-0.431601
G03 X36.709575 Y64.042820 Z-1.000000 I0.269430 J-0.088037
G03 X36.706415 Y64.006327 Z-1.000000 I0.190921 J-0.034915
G03 X36.727155 Y63.954920 Z-1.000000 I0.075603 J0.000614
G03 X36.754984 Y63.937422 Z-1.000000 I0.048340 J0.046002
G03 X36.779885 Y63.933420 Z-1.000000 I0.025421 J0.078703
G03 X36.801789 Y63.935891 Z-1.000000 I0.000242 J0.096159
G03 X36.818945 Y63.941420 Z-1.000000 I-0.024048 J0.104005
G03 X36.853166 Y63.957486 Z-1.000000 I-0.084641 J0.224768
G03 X36.897075 Y63.984420 Z-1.000000 I-0.392172 J0.688590
G03 X36.981513 Y64.044184 Z-1.000000 I-0.861737 J1.307044
G03 X37.135356 Y64.162150 Z-1.000000 I-11.296095 J14.890873
G02 X37.353543 Y64.307024 Z-1.000000 I1.097420 J-1.416024
G02 X37.527934 Y64.375040 Z-1.000000 I0.326586 J-0.579786
G02 X37.723319 Y64.400353 Z-1.000000 I0.221187 J-0.940578
G02 X38.147075 Y64.396540 Z-1.000000 I0.158507 J-5.933717
G02 X38.485116 Y64.369305 Z-1.000000 I-0.212307 J-4.746708
G02 X38.664653 Y64.337940 Z-1.000000 I-0.185709 J-1.592534
G02 X38.753732 Y64.312728 Z-1.000000 I-0.234195 J-0.997435
G02 X38.799418 Y64.293040 Z-1.000000 I-0.091494 J-0.275162
G02 X38.834936 Y64.264051 Z-1.000000 I-0.056878 J-0.105940
G01 X38.838478 Y64.257840 Z-1.000000
G02 X38.841622 Y64.244383 Z-1.000000 I-0.056440 J-0.020283
G03 X38.842378 Y64.238340 Z-1.000000 I0.292138 J0.033467
G02 X38.824267 Y64.238632 Z-1.000000 I-0.006903 J0.133629
G02 X38.699800 Y64.261740 Z-1.000000 I0.053267 J0.633679
G03 X38.582910 Y64.289469 Z-1.000000 I-0.329031 J-1.126792
G03 X38.510347 Y64.291040 Z-1.000000 I-0.041148 J-0.223935
G03 X38.473121 Y64.279466 Z-1.000000 I0.020818 J-0.132610
G03 X38.436127 Y64.240240 Z-1.000000 I0.032445 J-0.067656
G01 X38.435810 Y64.203589 Z-1.000000
G03 X38.447847 Y64.175840 Z-1.000000 I0.367157 J0.142782
G02 X38.418082 Y64.172490 Z-1.000000 I-0.033147 J0.160599
G02 X38.320894 Y64.179840 Z-1.000000 I-0.010474 J0.507712
G03 X38.013827 Y64.152870 Z-1.000000 I-0.103257 J-0.585897
G03 X37.631441 Y63.966950 Z-1.000000 I0.709073 J-1.944561
G03 X37.465168 Y63.849813 Z-1.000000 I0.921226 J-1.484237
G03 X37.344331 Y63.736480 Z-1.000000 I0.634309 J-0.797393
G03 X37.254783 Y63.606795 Z-1.000000 I0.444956 J-0.403003
G03 X37.236909 Y63.482570 Z-1.000000 I0.172529 J-0.088223
G02 X37.241635 Y63.441423 Z-1.000000 I-0.276291 J-0.052578
G02 X37.240809 Y63.425970 Z-1.000000 I-0.082328 J-0.003349
G01 X37.238534 Y63.418196 Z-1.000000
G01 X37.238809 Y63.417970 Z-1.000000
G01 X37.238653 Y63.418375 Z-1.000000
G02 X37.225139 Y63.417970 Z-1.000000 I-0.009156 J0.079783
G02 X37.204800 Y63.420905 Z-1.000000 I0.006129 J0.114414
G02 X37.160689 Y63.433570 Z-1.000000 I0.114082 J0.480489
G03 X37.078589 Y63.454192 Z-1.000000 I-0.151292 J-0.428584
G03 X37.014204 Y63.453070 Z-1.000000 I-0.028929 J-0.187813
G03 X36.983151 Y63.442323 Z-1.000000 I0.019045 J-0.105270
G03 X36.951704 Y63.413970 Z-1.000000 I0.040654 J-0.076705
G03 X36.938186 Y63.372727 Z-1.000000 I0.066080 J-0.044496
G03 X36.943904 Y63.335870 Z-1.000000 I0.096284 J-0.003934
G02 X36.947942 Y63.313840 Z-1.000000 I-0.064742 J-0.023252
G01 X36.947804 Y63.312470 Z-1.000000
G03 X36.850639 Y63.288863 Z-1.000000 I0.011025 J-0.257141
G03 X36.734913 Y63.218770 Z-1.000000 I0.257296 J-0.555388
G03 X36.624996 Y63.122398 Z-1.000000 I0.706548 J-0.916725
G03 X36.488820 Y62.974630 Z-1.000000 I1.641954 J-1.649773
G03 X36.243482 Y62.645427 Z-1.000000 I2.575236 J-2.175209
G03 X35.973195 Y62.181660 Z-1.000000 I4.334341 J-2.836735
G03 X35.641098 Y60.878348 Z-1.000000 I2.663555 J-1.372667
G03 X35.918505 Y59.722680 Z-1.000000 I2.321988 J-0.053758
G03 X36.260388 Y59.296762 Z-1.000000 I1.327796 J0.715645
G03 X36.807177 Y58.955100 Z-1.000000 I1.374822 J1.591870
G02 X37.098231 Y58.815076 Z-1.000000 I-1.459327 J-3.405865
G02 X37.246630 Y58.720720 Z-1.000000 I-0.559237 J-1.043418
G02 X37.359880 Y58.601691 Z-1.000000 I-0.290692 J-0.389967
G02 X37.373583 Y58.556660 Z-1.000000 I-0.067136 J-0.045031
G02 X37.364924 Y58.490729 Z-1.000000 I-0.255337 J-0.000000
G02 X37.348193 Y58.451190 Z-1.000000 I-0.149536 J0.039967
G02 X37.323010 Y58.424384 Z-1.000000 I-0.074424 J0.044685
G01 X37.314993 Y58.421890 Z-1.000000
G02 X37.268581 Y58.440173 Z-1.000000 I0.000000 J0.068050
G01 X37.254443 Y58.472690 Z-1.000000
G03 X37.201554 Y58.587475 Z-1.000000 I-0.151003 J0.000000
G03 X37.078661 Y58.632840 Z-1.000000 I-0.122893 J-0.143774
G03 X37.012531 Y58.617694 Z-1.000000 I-0.000000 J-0.151940
G03 X36.965380 Y58.570340 Z-1.000000 I0.043950 J-0.090913
G03 X36.957742 Y58.508627 Z-1.000000 I0.088457 J-0.042278
G03 X36.981010 Y58.449250 Z-1.000000 I0.180605 J0.036527
G01 X36.980266 Y58.448778 Z-1.000000
G01 X36.977110 Y58.447250 Z-1.000000
G02 X36.942807 Y58.434677 Z-1.000000 I-0.061449 J0.114575
G02 X36.836485 Y58.423850 Z-1.000000 I-0.102695 J0.481001
G02 X36.799284 Y58.424655 Z-1.000000 I0.007764 J1.218480
G02 X36.772035 Y58.425850 Z-1.000000 I0.072827 J1.972232
G03 X36.838548 Y58.472083 Z-1.000000 I-0.292506 J0.491776
G03 X36.877504 Y58.519550 Z-1.000000 I-0.094499 J0.117273
G03 X36.883921 Y58.535160 Z-1.000000 I-0.084060 J0.043678
G03 X36.887304 Y58.558650 Z-1.000000 I-0.072135 J0.022378
G03 X36.882154 Y58.583705 Z-1.000000 I-0.070113 J-0.001355
G03 X36.867774 Y58.605550 Z-1.000000 I-0.062191 J-0.025283
G03 X36.828756 Y58.627208 Z-1.000000 I-0.056908 J-0.056548
G03 X36.797464 Y58.630950 Z-1.000000 I-0.033255 J-0.145373
G03 X36.588378 Y58.581348 Z-1.000000 I-0.006282 J-0.439004
G03 X36.373636 Y58.439540 Z-1.000000 I0.575433 J-1.104882
G03 X36.282994 Y58.355018 Z-1.000000 I0.625112 J-0.761236
G03 X36.221293 Y58.275480 Z-1.000000 I0.375346 J-0.354874
G03 X36.198105 Y58.232698 Z-1.000000 I0.312305 J-0.196941
G03 X36.184183 Y58.189580 Z-1.000000 I0.174272 J-0.080078
G03 X36.185124 Y58.158221 Z-1.000000 I0.070005 J-0.013593
G03 X36.193983 Y58.125180 Z-1.000000 I1.626754 J0.418465
G02 X36.155940 Y58.133397 Z-1.000000 I0.011072 J0.143431
G03 X36.119763 Y58.133180 Z-1.000000 I-0.017795 J-0.048990
G03 X36.054099 Y58.096379 Z-1.000000 I0.101387 J-0.257890
G03 X35.981091 Y58.033580 Z-1.000000 I0.458846 J-0.607273
G03 X35.850018 Y57.882567 Z-1.000000 I0.850121 J-0.870256
G03 X35.693982 Y57.644910 Z-1.000000 I2.223889 J-1.630173
G03 X35.428606 Y57.095763 Z-1.000000 I3.325937 J-1.945955
G03 X35.334607 Y56.633190 Z-1.000000 I1.296702 J-0.504340
G02 X35.318198 Y56.323293 Z-1.000000 I-6.965825 J0.213449
G02 X35.266247 Y55.742570 Z-1.000000 I-20.681830 J1.557507
G03 X35.242880 Y55.507285 Z-1.000000 I27.828828 J-2.882603
G03 X35.236947 Y55.394910 Z-1.000000 I1.333463 J-0.126744
G03 X35.237258 Y55.367795 Z-1.000000 I0.613599 J-0.006530
G03 X35.238947 Y55.346110 Z-1.000000 I0.246020 J0.008258
G03 X35.242124 Y55.325912 Z-1.000000 I0.239612 J0.027338
G03 X35.252617 Y55.299210 Z-1.000000 I0.080309 J0.016146
G01 X35.257401 Y55.292558 Z-1.000000
G03 X35.264337 Y55.285510 Z-1.000000 I0.089551 J0.081192
G02 X35.270610 Y55.279847 Z-1.000000 I-0.044339 J-0.055424
G01 X35.272137 Y55.277510 Z-1.000000
G02 X35.278081 Y55.273375 Z-1.000000 I-0.119968 J-0.178791
G01 X35.283857 Y55.271510 Z-1.000000
G01 X35.295098 Y55.268396 Z-1.000000
G03 X35.307297 Y55.267510 Z-1.000000 I0.012199 J0.083547
G01 X35.310568 Y55.267662 Z-1.000000
G03 X35.328777 Y55.271510 Z-1.000000 I-0.007481 J0.080404
G03 X35.357389 Y55.288000 Z-1.000000 I-0.026483 J0.079019
G03 X35.371747 Y55.302710 Z-1.000000 I-0.090411 J0.102609
G03 X35.419671 Y55.375755 Z-1.000000 I-0.303458 J0.251337
G03 X35.524091 Y55.591780 Z-1.000000 I-5.544998 J2.813547
G03 X35.627307 Y55.821425 Z-1.000000 I-13.437968 J6.177834
G03 X35.815107 Y56.249980 Z-1.000000 I-243.298131 J106.872743
G02 X37.076626 Y57.745957 Z-1.000000 I3.151568 J-1.377745
G02 X38.539716 Y58.052710 Z-1.000000 I1.121079 J-1.704542
G02 X39.615449 Y57.565662 Z-1.000000 I-0.389820 J-2.292489
G02 X41.281903 Y55.810530 Z-1.000000 I-5.908075 J-7.278263
G03 X41.430442 Y55.622509 Z-1.000000 I2.518495 J1.836957
G03 X41.524091 Y55.527320 Z-1.000000 I0.723885 J0.618514
G03 X41.571476 Y55.490012 Z-1.000000 I0.354936 J0.402057
G03 X41.619791 Y55.468720 Z-1.000000 I0.077879 J0.111257
G03 X41.651011 Y55.468092 Z-1.000000 I0.017272 J0.082303
G03 X41.690101 Y55.488220 Z-1.000000 I-0.011994 J0.071314
G03 X41.708886 Y55.523339 Z-1.000000 I-0.048400 J0.048473
G03 X41.711581 Y55.550720 Z-1.000000 I-0.137756 J0.027381
G03 X41.702136 Y55.616559 Z-1.000000 I-0.234197 J-0.000000
G03 X41.670561 Y55.703060 Z-1.000000 I-0.679961 J-0.199190
G03 X41.627606 Y55.790385 Z-1.000000 I-1.060160 J-0.467263
G03 X41.561186 Y55.906190 Z-1.000000 I-2.714820 J-1.480137
G03 X41.414158 Y56.133076 Z-1.000000 I-3.554849 J-2.142552
G03 X41.197905 Y56.429630 Z-1.000000 I-6.694839 J-4.654884
G03 X40.704935 Y57.028205 Z-1.000000 I-8.464813 J-6.469104
G03 X40.235014 Y57.499940 Z-1.000000 I-4.288637 J-3.802222
G03 X39.091473 Y58.321380 Z-1.000000 I-4.421429 J-4.948456
G03 X38.328764 Y58.580020 Z-1.000000 I-1.054876 J-1.856843
G02 X38.039186 Y58.643398 Z-1.000000 I0.258394 J1.873850
G02 X37.799467 Y58.747990 Z-1.000000 I0.323129 J1.067602
G02 X37.576208 Y58.903482 Z-1.000000 I0.866848 J1.482666
G02 X37.166655 Y59.261660 Z-1.000000 I5.581404 J6.795207
G01 X36.510405 Y59.872990 Z-1.000000
G01 X36.473295 Y60.726500 Z-1.000000
G02 X36.498116 Y61.453253 Z-1.000000 I4.583752 J0.207251
G02 X36.633451 Y61.935490 Z-1.000000 I1.560452 J-0.177818
G02 X36.907757 Y62.369914 Z-1.000000 I1.803899 J-0.835212
G02 X37.568998 Y63.089780 Z-1.000000 I7.497523 J-6.223308
G02 X38.790654 Y63.903370 Z-1.000000 I2.724600 J-2.767166
G02 X39.977201 Y64.097600 Z-1.000000 I0.998639 J-2.379253
G02 X41.182963 Y63.774208 Z-1.000000 I-0.241489 J-3.309919
G02 X42.877592 Y62.693300 Z-1.000000 I-3.769352 J-7.778384
G02 X43.552576 Y62.096456 Z-1.000000 I-7.173857 J-8.793174
G02 X43.818998 Y61.775330 Z-1.000000 I-1.263057 J-1.318976
G02 X43.971505 Y61.413693 Z-1.000000 I-0.923270 J-0.602331
G02 X44.026029 Y60.941350 Z-1.000000 I-2.209629 J-0.494381
G03 X44.041300 Y60.644002 Z-1.000000 I3.595465 J0.035583
G03 X44.068999 Y60.490170 Z-1.000000 I0.912022 J0.084811
G03 X44.095087 Y60.416853 Z-1.000000 I0.479224 J0.129223
G03 X44.127589 Y60.365170 Z-1.000000 I0.198258 J0.088616
G03 X44.177123 Y60.326442 Z-1.000000 I0.117986 J0.099866
G03 X44.236963 Y60.312470 Z-1.000000 I0.059840 J0.121157
G03 X44.300984 Y60.327313 Z-1.000000 I-0.000000 J0.145492
G03 X44.354151 Y60.365170 Z-1.000000 I-0.088419 J0.180439
G03 X44.394445 Y60.415706 Z-1.000000 I-0.200426 J0.201135
G03 X44.430321 Y60.484320 Z-1.000000 I-0.425203 J0.266015
G03 X44.478094 Y60.634901 Z-1.000000 I-0.750436 J0.320951
G03 X44.514301 Y60.863220 Z-1.000000 I-2.133256 J0.455323
G03 X44.528653 Y61.343269 Z-1.000000 I-3.214362 J0.336338
G03 X44.455711 Y61.951110 Z-1.000000 I-4.083884 J-0.181776
G03 X43.784266 Y63.883818 Z-1.000000 I-7.194565 J-1.416485
G03 X42.664696 Y65.439390 Z-1.000000 I-5.723584 J-2.938685
G02 X42.417261 Y65.711959 Z-1.000000 I3.635213 J3.548595
G02 X42.330711 Y65.830020 Z-1.000000 I0.820099 J0.691967
G02 X42.317175 Y65.856291 Z-1.000000 I0.141302 J0.089429
G02 X42.311181 Y65.871020 Z-1.000000 I8.891921 J3.627017
G03 X42.329781 Y65.866655 Z-1.000000 I0.119038 J0.465438
G02 X42.363911 Y65.855420 Z-1.000000 I-0.035041 J-0.163905
G02 X42.430650 Y65.822887 Z-1.000000 I-0.356802 J-0.816680
G02 X42.537739 Y65.761720 Z-1.000000 I-1.235243 J-2.286937
G02 X42.745364 Y65.627048 Z-1.000000 I-1.986173 J-3.289491
G02 X43.092426 Y65.373050 Z-1.000000 I-5.080575 J-7.306183
G02 X44.382504 Y64.159734 Z-1.000000 I-5.474651 J-7.113516
G02 X45.645161 Y62.443360 Z-1.000000 I-9.686263 J-8.448364
G02 X46.207355 Y61.213145 Z-1.000000 I-4.710438 J-2.896179
G02 X46.481098 Y59.794920 Z-1.000000 I-5.982546 J-1.890272
G03 X46.511299 Y59.431025 Z-1.000000 I24.445348 J1.845638
G03 X46.537738 Y59.177730 Z-1.000000 I9.223774 J0.834737
G03 X46.554678 Y59.054330 Z-1.000000 I3.388530 J0.402310
G03 X46.567038 Y58.978520 Z-1.000000 I5.470486 J0.852977
G03 X46.573492 Y58.941075 Z-1.000000 I53.154006 J9.142489
G03 X46.578758 Y58.916020 Z-1.000000 I0.349318 J0.060336
G02 X46.581476 Y58.903890 Z-1.000000 I-0.165708 J-0.043498
G03 X46.584658 Y58.892620 Z-1.000000 I0.063298 J0.011789
G01 X46.587121 Y58.887310 Z-1.000000
G02 X46.590558 Y58.880920 Z-1.000000 I-0.081454 J-0.047933
G01 X46.592070 Y58.878535 Z-1.000000
G01 X46.594458 Y58.874920 Z-1.000000
G01 X46.600725 Y58.867333 Z-1.000000
G01 X46.602258 Y58.864920 Z-1.000000
G03 X46.611708 Y58.856957 Z-1.000000 I0.045950 J0.044943
G03 X46.621788 Y58.851220 Z-1.000000 I0.038125 J0.055261
G03 X46.633704 Y58.847060 Z-1.000000 I0.038142 J0.090098
G03 X46.647178 Y58.845220 Z-1.000000 I0.013474 J0.048427
G01 X46.649874 Y58.845401 Z-1.000000
G03 X46.664758 Y58.849220 Z-1.000000 I-0.010305 J0.071074
G03 X46.672572 Y58.852417 Z-1.000000 I-0.054169 J0.143548
G03 X46.678428 Y58.855220 Z-1.000000 I-0.042916 J0.097177
G03 X46.699038 Y58.868867 Z-1.000000 I-0.051932 J0.100814
G03 X46.713588 Y58.882520 Z-1.000000 I-0.107306 J0.128938
G03 X46.739873 Y58.914287 Z-1.000000 I-0.234670 J0.220933
G03 X46.774138 Y58.964520 Z-1.000000 I-0.860257 J0.623598
G03 X46.838679 Y59.074162 Z-1.000000 I-1.440042 J0.921503
G03 X46.926482 Y59.247730 Z-1.000000 I-3.232077 J1.744002
G03 X46.996428 Y59.455779 Z-1.000000 I-0.846159 J0.400262
G03 X47.063200 Y59.864910 Z-1.000000 I-4.505636 J0.945352
G03 X47.100098 Y60.280814 Z-1.000000 I-7.342652 J0.861014
G03 X47.119840 Y60.792650 Z-1.000000 I-11.785947 J0.710890
G03 X47.094401 Y61.888364 Z-1.000000 I-13.682133 J0.230494
G03 X46.987027 Y62.589520 Z-1.000000 I-3.996289 J-0.253185
G02 X46.870797 Y63.063440 Z-1.000000 I1917.909552 J470.619524
G02 X46.639371 Y64.011400 Z-1.000000 I507.692505 J124.445804
G03 X46.167398 Y65.588935 Z-1.000000 I-15.333883 J-3.728279
G03 X45.522184 Y67.140300 Z-1.000000 I-15.449192 J-5.515478
G03 X45.059537 Y68.021714 Z-1.000000 I-11.824998 J-5.644722
G03 X44.594449 Y68.773120 Z-1.000000 I-11.653265 J-6.693227
G03 X44.351666 Y69.121868 Z-1.000000 I-8.414259 J-5.598760
G03 X44.176481 Y69.343430 Z-1.000000 I-2.864902 J-2.085183
G03 X44.083384 Y69.445452 Z-1.000000 I-1.693694 J-1.452047
G03 X44.014371 Y69.509450 Z-1.000000 I-0.644265 J-0.625537
G03 X43.941318 Y69.560546 Z-1.000000 I-0.334945 J-0.401107
G03 X43.869840 Y69.579750 Z-1.000000 I-0.071478 J-0.123420
G02 X43.817400 Y69.591690 Z-1.000000 I-0.000000 J0.121130
G01 X43.815150 Y69.593450 Z-1.000000
G01 X43.815007 Y69.594247 Z-1.000000
G02 X43.822950 Y69.607150 Z-1.000000 I0.218874 J-0.125838
G03 X43.842456 Y69.657412 Z-1.000000 I-0.102152 J0.068559
G03 X43.842480 Y69.706750 Z-1.000000 I-0.164564 J0.024750
G03 X43.829757 Y69.754241 Z-1.000000 I-0.214743 J-0.032080
G03 X43.807320 Y69.802450 Z-1.000000 I-0.409977 J-0.161482
G03 X43.746210 Y69.893045 Z-1.000000 I-0.493847 J-0.267212
G03 X43.660836 Y69.984100 Z-1.000000 I-0.772387 J-0.638645
G03 X43.565427 Y70.063218 Z-1.000000 I-0.679424 J-0.722238
G03 X43.473336 Y70.116910 Z-1.000000 I-0.308506 J-0.423316
G03 X43.425090 Y70.135526 Z-1.000000 I-0.184710 J-0.406871
G03 X43.377636 Y70.144210 Z-1.000000 I-0.057103 J-0.178044
G01 X43.350682 Y70.137624 Z-1.000000
G02 X43.322946 Y70.124710 Z-1.000000 I-0.082540 J0.141038
G03 X43.318841 Y70.187928 Z-1.000000 I-0.178344 J0.020161
G03 X43.291696 Y70.257520 Z-1.000000 I-0.280474 J-0.069310
G03 X43.240822 Y70.339514 Z-1.000000 I-0.784840 J-0.430188
G03 X43.158884 Y70.450880 Z-1.000000 I-2.263296 J-1.579390
G03 X42.977231 Y70.669316 Z-1.000000 I-3.266254 J-2.531494
G03 X42.731149 Y70.931350 Z-1.000000 I-5.177942 J-4.616150
G03 X42.471813 Y71.180173 Z-1.000000 I-4.890872 J-4.837966
G03 X42.256540 Y71.362990 Z-1.000000 I-2.753216 J-3.023842
G03 X42.147286 Y71.445081 Z-1.000000 I-1.685850 J-2.129920
G03 X42.067087 Y71.495800 Z-1.000000 I-0.498066 J-0.698801
G03 X42.025060 Y71.517248 Z-1.000000 I-0.303157 J-0.542138
G03 X41.988957 Y71.531000 Z-1.000000 I-0.116208 J-0.250807
G03 X41.952345 Y71.538028 Z-1.000000 I-0.059070 J-0.208856
G03 X41.908877 Y71.533000 Z-1.000000 I-0.010429 J-0.100251
G02 X41.862016 Y71.526182 Z-1.000000 I-0.040681 J0.115153
G01 X41.844427 Y71.531000 Z-1.000000
G01 X41.833510 Y71.541788 Z-1.000000
G02 X41.826847 Y71.568100 Z-1.000000 I0.048622 J0.026312
G03 X41.767277 Y71.742981 Z-1.000000 I-0.286485 J-0.000000
G03 X41.600285 Y71.902080 Z-1.000000 I-0.599412 J-0.461960
G03 X41.388871 Y72.011295 Z-1.000000 I-0.519653 J-0.746689
G03 X41.153019 Y72.052470 Z-1.000000 I-0.235852 J-0.654904
G02 X41.049747 Y72.068038 Z-1.000000 I-0.000000 J0.350318
G02 X41.014347 Y72.087670 Z-1.000000 I0.029016 J0.094053
G02 X40.994601 Y72.117493 Z-1.000000 I0.043488 J0.050242
G02 X40.987007 Y72.185370 Z-1.000000 I0.162829 J0.052580
G03 X40.980819 Y72.285180 Z-1.000000 I-0.329589 J0.029663
G03 X40.940137 Y72.357240 Z-1.000000 I-0.136671 J-0.029644
G03 X40.863601 Y72.390140 Z-1.000000 I-0.083263 J-0.088223
G03 X40.770215 Y72.376740 Z-1.000000 I-0.013298 J-0.239433
G02 X40.717449 Y72.368621 Z-1.000000 I-0.047837 J0.135380
G02 X40.697945 Y72.372740 Z-1.000000 I0.001979 J0.057611
G01 X40.687429 Y72.381301 Z-1.000000
G01 X40.682315 Y72.396140 Z-1.000000
G03 X40.672567 Y72.439080 Z-1.000000 I-0.103786 J-0.000984
G03 X40.653015 Y72.472340 Z-1.000000 I-0.185268 J-0.086535
G03 X40.628637 Y72.501657 Z-1.000000 I-0.228243 J-0.164997
G03 X40.594425 Y72.534840 Z-1.000000 I-0.439564 J-0.418968
G03 X40.517090 Y72.597784 Z-1.000000 I-0.683976 J-0.761369
G03 X40.393253 Y72.683270 Z-1.000000 I-1.474606 J-2.003719
G03 X40.131228 Y72.839678 Z-1.000000 I-2.315169 J-3.580842
G03 X39.733097 Y73.048510 Z-1.000000 I-5.613534 J-10.218076
G03 X38.866712 Y73.447936 Z-1.000000 I-6.706090 J-13.406655
G03 X38.051457 Y73.745770 Z-1.000000 I-3.389646 J-8.013714
G03 X37.151245 Y73.981432 Z-1.000000 I-3.106157 J-10.028080
G03 X36.490910 Y74.079760 Z-1.000000 I-1.098678 J-5.111888
G02 X36.214502 Y74.110582 Z-1.000000 I0.436639 J5.170553
G02 X36.033879 Y74.142260 Z-1.000000 I0.352371 J2.539936
G02 X35.947342 Y74.164312 Z-1.000000 I0.227735 J1.074497
G02 X35.903019 Y74.179360 Z-1.000000 I0.180488 J0.604426
G01 X35.905258 Y74.180979 Z-1.000000
G03 X35.908919 Y74.183360 Z-1.000000 I-0.034080 J0.056406
G02 X35.950159 Y74.206584 Z-1.000000 I0.163305 J-0.241766
G02 X36.035872 Y74.241960 Z-1.000000 I0.482267 J-1.046951
G02 X36.213244 Y74.297293 Z-1.000000 I0.655289 J-1.788595
G02 X36.514387 Y74.365000 Z-1.000000 I1.193499 J-4.604830
G02 X37.146266 Y74.458983 Z-1.000000 I1.458569 J-7.635290
G02 X37.924543 Y74.509540 Z-1.000000 I0.995255 J-9.305302
G02 X39.364715 Y74.375707 Z-1.000000 I0.144934 J-6.256116
G02 X40.488997 Y73.966570 Z-1.000000 I-0.884004 J-4.178478
G03 X41.146520 Y73.627453 Z-1.000000 I13.021139 J24.440023
G03 X41.608137 Y73.406020 Z-1.000000 I7.354100 J14.739076
G03 X41.835215 Y73.304385 Z-1.000000 I4.697696 J10.191394
G03 X41.961653 Y73.253680 Z-1.000000 I0.957081 J2.203557
G03 X42.024031 Y73.232097 Z-1.000000 I0.569322 J1.544517
G03 X42.063215 Y73.222480 Z-1.000000 I0.085918 J0.265427
G03 X42.073444 Y73.221133 Z-1.000000 I0.049857 J0.339026
G03 X42.084695 Y73.220480 Z-1.000000 I0.011251 J0.096640
G01 X42.089949 Y73.221023 Z-1.000000
G02 X42.096415 Y73.222480 Z-1.000000 I3.779880 J-16.761211
G03 X42.109324 Y73.225939 Z-1.000000 I-0.006561 J0.050304
G01 X42.112035 Y73.226480 Z-1.000000
G03 X42.124710 Y73.232922 Z-1.000000 I-0.023888 J0.062689
G03 X42.133515 Y73.240180 Z-1.000000 I-0.027583 J0.042432
G03 X42.143110 Y73.252801 Z-1.000000 I-0.039011 J0.039617
G03 X42.149145 Y73.267580 Z-1.000000 I-0.058627 J0.032561
G03 X42.151146 Y73.278797 Z-1.000000 I-0.071779 J0.018589
G03 X42.151145 Y73.292980 Z-1.000000 I-0.070945 J0.007089
G03 X42.150480 Y73.296038 Z-1.000000 I-0.068476 J-0.013280
G03 X42.145245 Y73.310580 Z-1.000000 I-0.068971 J-0.016618
G03 X40.421109 Y75.359556 Z-1.000000 I-4.955475 J-2.419960
G03 X37.432354 Y76.724640 Z-1.000000 I-4.903553 J-6.781605
G03 X36.693783 Y76.810155 Z-1.000000 I-0.737718 J-3.139306
G02 X36.057354 Y76.837920 Z-1.000000 I-0.001921 J7.263927
G01 X36.054449 Y76.840949 Z-1.000000
G01 X36.051454 Y76.843920 Z-1.000000
G01 X36.047554 Y76.841920 Z-1.000000
G01 X36.043654 Y76.839920 Z-1.000000
G02 X35.542289 Y76.896942 Z-1.000000 I0.779098 J9.082867
G03 X34.592482 Y76.959060 Z-1.000000 I-0.884858 J-6.237267
G01 X34.592255 Y76.958980 Z-1.000000
G00 Z5.000000

(End cutting path id: path21)


(Start cutting path id: path21)
(Change tool to Default tool)

G00 Z5.000000
G00 X34.592255 Y76.958980

G01 Z-2.000000 F100.0(Penetrate)
G03 X34.167356 Y76.945385 Z-2.000000 I0.107931 J-10.019802 F400.000000
G03 X33.922333 Y76.923880 Z-2.000000 I0.190459 J-3.576702
G03 X33.804245 Y76.905801 Z-2.000000 I0.268671 J-2.149640
G03 X33.736786 Y76.888680 Z-2.000000 I0.090026 J-0.496165
G03 X33.705728 Y76.876770 Z-2.000000 I0.079188 J-0.252950
G03 X33.676236 Y76.857480 Z-2.000000 I0.048959 J-0.107042
G03 X33.663865 Y76.843335 Z-2.000000 I0.043357 J-0.050403
G03 X33.652796 Y76.816480 Z-2.000000 I0.065879 J-0.042862
G03 X33.654193 Y76.787270 Z-2.000000 I0.057100 J-0.011909
G03 X33.664516 Y76.765680 Z-2.000000 I0.079151 J0.024584
G01 X33.671044 Y76.724268 Z-2.000000
G02 X33.639126 Y76.683680 Z-2.000000 I-0.065713 J0.018832
G02 X33.587748 Y76.676861 Z-2.000000 I-0.034075 J0.059780
G02 X33.525845 Y76.720780 Z-2.000000 I0.026884 J0.103478
G03 X33.469749 Y76.772942 Z-2.000000 I-0.139308 J-0.093571
G03 X33.389126 Y76.804780 Z-2.000000 I-0.151103 J-0.264636
G03 X33.301084 Y76.817787 Z-2.000000 I-0.118828 J-0.499852
G03 X33.178189 Y76.818480 Z-2.000000 I-0.067820 J-1.129828
G03 X32.933172 Y76.790105 Z-2.000000 I0.090147 J-1.850474
G03 X32.541470 Y76.703240 Z-2.000000 I0.999410 J-5.433233
G03 X31.762529 Y76.462605 Z-2.000000 I2.283608 J-8.773143
G03 X30.551236 Y75.984500 Z-2.000000 I7.022203 J-19.564423
G03 X30.058469 Y75.759314 Z-2.000000 I5.021211 J-11.639464
G03 X29.846158 Y75.642700 Z-2.000000 I1.008642 J-2.087953
G03 X29.750554 Y75.575572 Z-2.000000 I0.529190 J-0.855320
G03 X29.701626 Y75.523560 Z-2.000000 I0.152795 J-0.192754
G03 X29.684133 Y75.490095 Z-2.000000 I0.122513 J-0.085345
G03 X29.680146 Y75.445460 Z-2.000000 I0.079991 J-0.029641
G01 X29.694464 Y75.419321 Z-2.000000
G03 X29.715306 Y75.400560 Z-2.000000 I0.833377 J0.904862
G02 X29.679990 Y75.398122 Z-2.000000 I-0.122533 J1.518179
G02 X29.625466 Y75.396560 Z-2.000000 I-0.054524 J0.950624
G03 X29.469982 Y75.374089 Z-2.000000 I0.000000 J-0.549167
G03 X29.244607 Y75.293050 Z-2.000000 I0.583617 J-1.976980
G03 X29.024837 Y75.187981 Z-2.000000 I1.119185 J-2.623344
G03 X28.793435 Y75.054770 Z-2.000000 I1.862587 J-3.503111
G03 X28.571967 Y74.905939 Z-2.000000 I1.966475 J-3.165401
G03 X28.408670 Y74.773520 Z-2.000000 I1.146764 J-1.581071
G03 X28.334626 Y74.701596 Z-2.000000 I0.983373 J-1.086424
G03 X28.283670 Y74.640700 Z-2.000000 I0.422137 J-0.405004
G03 X28.245319 Y74.574713 Z-2.000000 I0.301282 J-0.219243
G03 X28.230940 Y74.507890 Z-2.000000 I0.148088 J-0.066823
G02 X28.220101 Y74.460682 Z-2.000000 I-0.108220 J0.000000
G01 X28.211410 Y74.451290 Z-2.000000
G01 X28.197248 Y74.447233 Z-2.000000
G02 X28.131330 Y74.459290 Z-2.000000 I0.001985 J0.197074
G03 X28.039121 Y74.461612 Z-2.000000 I-0.049681 J-0.140847
G03 X27.926252 Y74.416290 Z-2.000000 I0.186297 J-0.627155
G03 X27.812637 Y74.350474 Z-2.000000 I0.549959 J-1.080337
G03 X27.650861 Y74.238550 Z-2.000000 I2.071392 J-3.166893
G03 X27.334159 Y73.989174 Z-2.000000 I3.317412 J-4.538825
G03 X26.910627 Y73.613550 Z-2.000000 I8.081575 J-9.538913
G03 X26.043724 Y72.745278 Z-2.000000 I10.972754 J-11.822352
G03 X25.529767 Y72.084250 Z-2.000000 I3.590745 J-3.322166
G03 X25.113103 Y71.386234 Z-2.000000 I9.214785 J-5.973909
G03 X24.877424 Y70.890890 Z-2.000000 I4.219259 J-2.311217
G02 X24.736665 Y70.580147 Z-2.000000 I-4.130247 J1.683641
G02 X24.670392 Y70.472930 Z-2.000000 I-0.626738 J0.313313
G02 X24.639388 Y70.438268 Z-2.000000 I-0.214640 J0.160792
G01 X24.637192 Y70.435830 Z-2.000000
G01 X24.635616 Y70.438616 Z-2.000000
G01 X24.633292 Y70.443830 Z-2.000000
G02 X24.611999 Y70.512689 Z-2.000000 I0.210620 J0.102849
G02 X24.584462 Y70.822740 Z-2.000000 I2.705680 J0.396555
G02 X24.582236 Y71.127630 Z-2.000000 I6.312127 J0.198534
G02 X24.598132 Y71.656720 Z-2.000000 I20.059371 J-0.337873
G02 X24.950310 Y73.773728 Z-2.000000 I8.837261 J-0.382340
G02 X25.488757 Y74.705550 Z-2.000000 I2.193834 J-0.646211
G03 X25.640920 Y74.879373 Z-2.000000 I-1.970888 J1.878809
G03 X25.719225 Y74.990700 Z-2.000000 I-0.834490 J0.670164
G03 X25.751732 Y75.050133 Z-2.000000 I-0.588102 J0.360269
G03 X25.770005 Y75.096170 Z-2.000000 I-0.303398 J0.147070
G03 X25.778945 Y75.143198 Z-2.000000 I-0.195400 J0.061508
G03 X25.770005 Y75.193870 Z-2.000000 I-0.105646 J0.007487
G03 X25.731402 Y75.233707 Z-2.000000 I-0.073696 J-0.032790
G03 X25.682115 Y75.244670 Z-2.000000 I-0.047923 J-0.099179
G03 X25.636144 Y75.237655 Z-2.000000 I0.002192 J-0.168488
G03 X25.582505 Y75.217370 Z-2.000000 I0.114441 J-0.383681
G03 X25.481690 Y75.159737 Z-2.000000 I0.283433 J-0.612796
G03 X25.307114 Y75.025960 Z-2.000000 I1.292962 J-1.868075
G02 X24.988259 Y74.775852 Z-2.000000 I-3.537872 J4.182022
G02 X24.625473 Y74.529870 Z-2.000000 I-3.985326 J5.487230
G03 X24.066798 Y74.040104 Z-2.000000 I1.274814 J-2.017701
G03 X23.342270 Y73.027910 Z-2.000000 I6.511356 J-5.426229
G03 X22.760466 Y71.925966 Z-2.000000 I8.588806 J-5.239280
G03 X22.381333 Y70.857990 Z-2.000000 I6.253564 J-2.821306
G03 X22.101433 Y68.867682 Z-2.000000 I8.203386 J-2.168492
G03 X22.297353 Y66.899010 Z-2.000000 I8.248083 J-0.173243
G03 X22.862492 Y65.224690 Z-2.000000 I8.139617 J1.814857
G03 X23.816885 Y63.600180 Z-2.000000 I8.613594 J3.967845
G02 X25.415256 Y61.364569 Z-2.000000 I-111.182049 J-81.179859
G02 X25.895010 Y60.580650 Z-2.000000 I-6.123136 J-4.286084
G02 X26.159100 Y59.811799 Z-2.000000 I-2.299250 J-1.219544
G02 X26.219228 Y59.084550 Z-2.000000 I-3.930553 J-0.691081
G02 X25.982660 Y57.989867 Z-2.000000 I-2.766873 J0.025036
G02 X25.184072 Y56.744710 Z-2.000000 I-4.419148 J1.955576
G03 X24.778493 Y56.220269 Z-2.000000 I3.785030 J-3.346226
G03 X24.488760 Y55.709550 Z-2.000000 I3.182680 J-2.143086
G03 X24.146990 Y54.949771 Z-2.000000 I22.554938 J-10.602605
G03 X23.795400 Y54.107990 Z-2.000000 I40.499253 J-17.409799
G03 X23.458501 Y53.241873 Z-2.000000 I30.051217 J-12.187802
G03 X23.375478 Y52.959550 Z-2.000000 I1.953750 J-0.727908
G03 X23.185217 Y51.696040 Z-2.000000 I9.474554 J-2.072774
G03 X23.141103 Y50.156820 Z-2.000000 I13.985741 J-1.171069
G03 X23.598528 Y47.506343 Z-2.000000 I9.325826 J0.244761
G03 X24.555166 Y45.830650 Z-2.000000 I4.545026 J1.483799
G02 X24.737184 Y45.602430 Z-2.000000 I-2.250772 J-1.981806
G02 X24.824697 Y45.459550 Z-2.000000 I-0.906967 J-0.653753
G02 X24.873741 Y45.308156 Z-2.000000 I-0.440499 J-0.226339
G02 X24.867667 Y45.258380 Z-2.000000 I-0.091813 J-0.014056
G02 X24.844731 Y45.208802 Z-2.000000 I-0.650667 J0.270917
G02 X24.832507 Y45.188080 Z-2.000000 I-0.176010 J0.089864
G02 X24.821105 Y45.200128 Z-2.000000 I0.145308 J0.148941
G02 X24.797347 Y45.231080 Z-2.000000 I0.232066 J0.202720
G03 X24.770645 Y45.258456 Z-2.000000 I-0.088045 J-0.059164
G03 X24.732897 Y45.274080 Z-2.000000 I-0.053129 J-0.074953
G03 X24.692980 Y45.272472 Z-2.000000 I-0.015779 J-0.104573
G03 X24.660627 Y45.260380 Z-2.000000 I0.031022 J-0.132326
G03 X24.607717 Y45.222558 Z-2.000000 I0.099507 J-0.195121
G03 X24.549298 Y45.158810 Z-2.000000 I0.507200 J-0.523446
G03 X24.443635 Y45.007935 Z-2.000000 I1.005824 J-0.816854
G03 X24.305158 Y44.756470 Z-2.000000 I3.378611 J-2.024391
G03 X24.057290 Y44.188075 Z-2.000000 I4.972979 J-2.506885
G03 X23.926252 Y43.678340 Z-2.000000 I2.378662 J-0.883193
G03 X23.976825 Y42.776814 Z-2.000000 I2.206638 J-0.328396
G03 X24.525861 Y41.397090 Z-2.000000 I6.048769 J1.607898
G03 X26.050652 Y39.681106 Z-2.000000 I4.446020 J2.415207
G03 X28.811017 Y38.358030 Z-2.000000 I5.268412 J7.450568
G03 X32.334574 Y37.855132 Z-2.000000 I3.590310 J12.560170
G03 X37.502424 Y38.309230 Z-2.000000 I0.143106 J28.004728
G02 X38.786953 Y38.511958 Z-2.000000 I4.892740 J-26.830599
G02 X39.439924 Y38.561190 Z-2.000000 I0.754614 J-5.653696
G02 X40.062781 Y38.505468 Z-2.000000 I0.051773 J-2.930256
G02 X40.494611 Y38.365870 Z-2.000000 I-0.380247 J-1.913961
G03 X41.041574 Y38.170177 Z-2.000000 I1.412066 J3.084496
G03 X41.992658 Y37.967440 Z-2.000000 I2.592664 J9.830537
G01 X41.994658 Y37.967440 Z-2.000000
G01 X42.023958 Y37.959440 Z-2.000000
G01 X42.027858 Y37.965440 Z-2.000000
G03 X45.445138 Y37.769291 Z-2.000000 I2.671050 J16.668889
G03 X48.414577 Y38.252550 Z-2.000000 I-0.569082 J12.861443
G03 X49.983692 Y38.775367 Z-2.000000 I-5.262523 J18.410338
G03 X51.680202 Y39.500600 Z-2.000000 I-8.409604 J22.019168
G03 X53.361074 Y40.481663 Z-2.000000 I-4.903277 J10.331326
G03 X55.393092 Y42.113880 Z-2.000000 I-11.879577 J16.870392
G03 X58.268427 Y45.318651 Z-2.000000 I-14.596153 J15.988001
G03 X59.660671 Y47.951770 Z-2.000000 I-8.301975 J6.074242
G03 X60.071055 Y49.387916 Z-2.000000 I-11.221969 J3.983423
G03 X60.180202 Y50.217400 Z-2.000000 I-4.827645 J1.057168
G03 X60.181338 Y50.416971 Z-2.000000 I-2.487091 J0.113950
G03 X60.168482 Y50.557240 Z-2.000000 I-1.235478 J-0.042513
G03 X60.135797 Y50.689851 Z-2.000000 I-0.727803 J-0.109053
G03 X60.086452 Y50.774040 Z-2.000000 I-0.237174 J-0.082456
G03 X60.001868 Y50.823114 Z-2.000000 I-0.116445 J-0.103274
G03 X59.896999 Y50.813140 Z-2.000000 I-0.036370 J-0.173902
G03 X59.807413 Y50.757783 Z-2.000000 I0.129258 J-0.309347
G03 X59.686061 Y50.633450 Z-2.000000 I0.657667 J-0.763290
G03 X59.492189 Y50.371425 Z-2.000000 I2.518262 J-2.065992
G03 X59.258327 Y49.992830 Z-2.000000 I5.513252 J-3.667122
G02 X58.950380 Y49.540340 Z-2.000000 I-3.055794 J1.748623
G02 X58.457546 Y48.992830 Z-2.000000 I-5.000437 J4.005510
G03 X58.308726 Y48.832877 Z-2.000000 I1.870068 J-1.889119
G03 X58.217311 Y48.713530 Z-2.000000 I1.045799 J-0.895720
G03 X58.178930 Y48.651793 Z-2.000000 I0.692739 J-0.473457
G03 X58.156761 Y48.604160 Z-2.000000 I0.296544 J-0.166994
G03 X58.152178 Y48.588461 Z-2.000000 I0.109142 J-0.040383
G03 X58.148961 Y48.572960 Z-2.000000 I0.848279 J-0.184114
G03 X58.128942 Y48.577050 Z-2.000000 I-0.094967 J-0.413819
G02 X58.100131 Y48.584660 Z-2.000000 I0.032590 J0.181722
G03 X58.008580 Y48.607632 Z-2.000000 I-0.167709 J-0.474466
G03 X57.936068 Y48.608060 Z-2.000000 I-0.037712 J-0.246326
G03 X57.901312 Y48.599752 Z-2.000000 I0.019360 J-0.157845
G03 X57.867708 Y48.580760 Z-2.000000 I0.039465 J-0.109052
G03 X57.841255 Y48.548815 Z-2.000000 I0.066573 J-0.082054
G03 X57.830598 Y48.506560 Z-2.000000 I0.078446 J-0.042255
G01 X57.825801 Y48.507917 Z-2.000000
G02 X57.811068 Y48.488960 Z-2.000000 I-0.093735 J0.057647
G02 X57.780547 Y48.460273 Z-2.000000 I-0.309031 J0.298207
G02 X57.723178 Y48.414760 Z-2.000000 I-0.678934 J0.796884
G02 X57.600075 Y48.331780 Z-2.000000 I-1.037013 J1.405627
G02 X57.418490 Y48.229220 Z-2.000000 I-1.496377 J2.437348
G03 X57.038050 Y48.005379 Z-2.000000 I1.874337 J-3.620846
G03 X56.840365 Y47.850310 Z-2.000000 I0.878215 J-1.323103
G03 X56.762139 Y47.766776 Z-2.000000 I0.523496 J-0.568625
G03 X56.727084 Y47.692110 Z-2.000000 I0.135329 J-0.109098
G03 X56.729666 Y47.644728 Z-2.000000 I0.092141 J-0.018740
G03 X56.760284 Y47.602310 Z-2.000000 I0.080245 J0.025663
G03 X56.803228 Y47.583487 Z-2.000000 I0.063859 J0.087295
G03 X56.850124 Y47.578910 Z-2.000000 I0.046896 J0.237939
G02 X56.873061 Y47.574353 Z-2.000000 I0.000000 J-0.059999
G01 X56.873564 Y47.574910 Z-2.000000
G01 X56.872727 Y47.574772 Z-2.000000
G02 X56.861844 Y47.547610 Z-2.000000 I-0.070611 J0.012531
G02 X56.843265 Y47.524110 Z-2.000000 I-0.159528 J0.107029
G01 X56.836454 Y47.518310 Z-2.000000
G02 X56.833112 Y47.516446 Z-2.000000 I-0.031169 J0.051949
G01 X56.832554 Y47.516310 Z-2.000000
G01 X56.830127 Y47.517307 Z-2.000000
G02 X56.773964 Y47.574910 Z-2.000000 I0.148130 J0.200609
G03 X56.711299 Y47.645596 Z-2.000000 I-0.339063 J-0.237468
G03 X56.641151 Y47.678420 Z-2.000000 I-0.089384 J-0.099653
G03 X56.597872 Y47.676706 Z-2.000000 I-0.016934 J-0.119683
G03 X56.559121 Y47.660820 Z-2.000000 I0.027079 J-0.121261
G03 X56.527328 Y47.635653 Z-2.000000 I0.090819 J-0.147392
G03 X56.498571 Y47.602220 Z-2.000000 I0.212787 J-0.212115
G02 X56.470201 Y47.571270 Z-2.000000 I-0.159983 J0.118171
G02 X56.375524 Y47.496750 Z-2.000000 I-0.708592 J0.802853
G02 X56.278078 Y47.434163 Z-2.000000 I-0.830589 J1.186049
G02 X56.172399 Y47.377610 Z-2.000000 I-0.767284 J1.306783
G03 X56.062330 Y47.307464 Z-2.000000 I0.245541 J-0.506719
G03 X55.992712 Y47.235040 Z-2.000000 I0.261514 J-0.321054
G03 X55.966807 Y47.194266 Z-2.000000 I0.245567 J-0.184633
G03 X55.951692 Y47.151040 Z-2.000000 I0.134563 J-0.071308
G03 X55.953797 Y47.121266 Z-2.000000 I0.058511 J-0.010825
G02 X55.963412 Y47.090540 Z-2.000000 I-0.732504 J-0.246086
G01 X55.957480 Y47.091459 Z-2.000000
G01 X55.951692 Y47.092540 Z-2.000000
G03 X55.929679 Y47.089053 Z-2.000000 I0.007194 J-0.116628
G02 X55.902862 Y47.082540 Z-2.000000 I-0.239628 J0.928259
G03 X55.850951 Y47.069553 Z-2.000000 I0.279694 J-1.228205
G03 X55.770050 Y47.045440 Z-2.000000 I0.477361 J-1.749366
G03 X55.607526 Y46.989329 Z-2.000000 I1.358527 J-4.198391
G03 X55.340362 Y46.887240 Z-2.000000 I3.767412 J-10.259799
G03 X54.798874 Y46.663297 Z-2.000000 I7.674967 J-19.324488
G03 X54.020050 Y46.316930 Z-2.000000 I13.778389 J-32.030205
G02 X51.458278 Y45.338692 Z-2.000000 I-8.691880 J18.918512
G02 X48.897003 Y44.740750 Z-2.000000 I-5.574190 J18.092384
G02 X48.100588 Y44.654149 Z-2.000000 I-1.239286 J7.691599
G02 X46.924346 Y44.617710 Z-2.000000 I-1.291250 J22.678389
G02 X46.376089 Y44.622641 Z-2.000000 I-0.105133 J18.791827
G02 X45.941925 Y44.641110 Z-2.000000 I0.270660 J11.475009
G02 X45.500081 Y44.682816 Z-2.000000 I0.424154 J6.855003
G02 X45.320831 Y44.721210 Z-2.000000 I0.136805 J1.076319
G02 X44.411098 Y45.438065 Z-2.000000 I0.463074 J1.523351
G02 X44.266143 Y46.512230 Z-2.000000 I1.208450 J0.709939
G03 X44.366639 Y47.158198 Z-2.000000 I-2.914501 J0.784225
G03 X44.385284 Y48.609890 Z-2.000000 I-21.990391 J1.008396
G03 X44.311299 Y50.055102 Z-2.000000 I-23.329372 J-0.469810
G03 X44.178253 Y50.906760 Z-2.000000 I-5.905079 J-0.486268
G03 X43.972718 Y51.633155 Z-2.000000 I-7.667005 J-1.777118
G03 X43.717315 Y52.309100 Z-2.000000 I-9.126151 J-3.062056
G03 X43.575946 Y52.623341 Z-2.000000 I-6.636618 J-2.796719
G03 X43.467315 Y52.826680 Z-2.000000 I-2.364166 J-1.132339
G03 X43.406206 Y52.921751 Z-2.000000 I-1.315175 J-0.778179
G03 X43.357940 Y52.982930 Z-2.000000 I-0.535946 J-0.373198
G03 X43.305093 Y53.031287 Z-2.000000 I-0.263187 J-0.234568
G03 X43.238800 Y53.053230 Z-2.000000 I-0.066293 J-0.089170
G01 X43.238918 Y53.053565 Z-2.000000
G02 X43.219270 Y53.076630 Z-2.000000 I0.049777 J0.062303
G02 X43.205524 Y53.110846 Z-2.000000 I0.131041 J0.072514
G02 X43.197790 Y53.170330 Z-2.000000 I0.224884 J0.059484
G03 X43.167507 Y53.308055 Z-2.000000 I-0.328325 J-0.000000
G03 X43.037634 Y53.549240 Z-2.000000 I-2.036606 J-0.941111
G03 X42.877962 Y53.786877 Z-2.000000 I-3.325328 J-2.061869
G03 X42.627478 Y54.115640 Z-2.000000 I-7.316641 J-5.314748
G03 X42.073398 Y54.762768 Z-2.000000 I-9.742201 J-7.780644
G03 X41.365759 Y55.482830 Z-2.000000 I-10.805230 J-9.911059
G03 X40.372202 Y56.291526 Z-2.000000 I-5.773796 J-6.078951
G03 X39.572790 Y56.736740 Z-2.000000 I-2.650921 J-3.819602
G03 X38.724197 Y56.954393 Z-2.000000 I-1.105032 J-2.545250
G03 X38.201696 Y56.836340 Z-2.000000 I-0.079955 J-0.861441
G03 X38.132274 Y56.789603 Z-2.000000 I0.382341 J-0.642843
G03 X38.092321 Y56.748440 Z-2.000000 I0.114565 J-0.151170
G03 X38.084260 Y56.735935 Z-2.000000 I0.095303 J-0.070286
G03 X38.076691 Y56.717240 Z-2.000000 I0.070582 J-0.039456
G03 X38.074372 Y56.695744 Z-2.000000 I0.069133 J-0.018331
G03 X38.082591 Y56.666440 Z-2.000000 I0.066920 J0.002964
G01 X38.092118 Y56.657093 Z-2.000000
G02 X38.102121 Y56.650840 Z-2.000000 I-0.030504 J-0.059924
G02 X38.094469 Y56.635976 Z-2.000000 I-0.494381 J0.245113
G02 X38.078681 Y56.609840 Z-2.000000 I-0.255061 J0.136236
G02 X38.010024 Y56.518782 Z-2.000000 I-0.947925 J0.643312
G02 X37.871650 Y56.363740 Z-2.000000 I-2.431022 J2.030406
G03 X37.596110 Y55.980701 Z-2.000000 I1.242594 J-1.184489
G03 X37.248603 Y55.215300 Z-2.000000 I6.246248 J-3.297503
G03 X36.984994 Y54.416659 Z-2.000000 I8.209130 J-3.152431
G03 X36.815010 Y53.621550 Z-2.000000 I6.493593 J-1.803968
G03 X36.741126 Y51.999624 Z-2.000000 I7.677055 J-1.162359
G03 X37.000556 Y49.877410 Z-2.000000 I17.107445 J1.014331
G03 X37.533011 Y47.804623 Z-2.000000 I15.623368 J2.908533
G03 X38.121650 Y46.613740 Z-2.000000 I4.512298 J1.489453
G02 X38.252268 Y46.388362 Z-2.000000 I-1.454740 J-0.993635
G02 X38.350166 Y46.141080 Z-2.000000 I-1.612424 J-0.781372
G02 X38.361950 Y46.098495 Z-2.000000 I-0.649208 J-0.202568
G03 X38.369696 Y46.068780 Z-2.000000 I0.850951 J0.205959
G03 X38.360861 Y46.074693 Z-2.000000 I-0.306244 J-0.447990
G02 X38.350166 Y46.082480 Z-2.000000 I0.073607 J0.112339
G02 X38.275640 Y46.143262 Z-2.000000 I1.730298 J2.197607
G02 X38.135322 Y46.262170 Z-2.000000 I36.561693 J43.287312
G03 X34.614837 Y48.042243 Z-2.000000 I-5.456670 J-6.420459
G03 X30.086494 Y48.166470 Z-2.000000 I-2.563761 J-10.858573
G03 X27.245685 Y47.310085 Z-2.000000 I2.261168 J-12.640749
G03 X25.498603 Y46.174280 Z-2.000000 I2.477490 J-5.722417
G01 X25.223213 Y45.918420 Z-2.000000
G01 X25.137273 Y46.125450 Z-2.000000
G02 X25.091613 Y46.242935 Z-2.000000 I2.790759 J1.152217
G02 X25.057193 Y46.346150 Z-2.000000 I1.831112 J0.667993
G02 X25.027776 Y46.464115 Z-2.000000 I1.174826 J0.355618
G02 X25.025943 Y46.482870 Z-2.000000 I0.095037 J0.018755
G03 X25.021404 Y46.524809 Z-2.000000 I-0.196034 J0.000000
G03 X25.006413 Y46.584430 Z-2.000000 I-0.977155 J-0.214004
G03 X24.986165 Y46.650827 Z-2.000000 I-1.742653 J-0.495135
G03 X24.953683 Y46.748500 Z-2.000000 I-8.285956 J-2.701353
G03 X24.883192 Y46.946698 Z-2.000000 I-6.842121 J-2.321823
G03 X24.783762 Y47.205530 Z-2.000000 I-12.370236 J-4.603508
G02 X23.933000 Y51.422647 Z-2.000000 I11.281674 J4.470342
G02 X24.621652 Y54.787560 Z-2.000000 I7.772524 J0.162226
G03 X24.916663 Y55.450475 Z-2.000000 I-56.029999 J25.331637
G03 X25.049386 Y55.768030 Z-2.000000 I-9.316865 J4.080517
G02 X25.106114 Y55.898355 Z-2.000000 I2.091706 J-0.832974
G02 X25.158762 Y56.000450 Z-2.000000 I1.527554 J-0.723099
G02 X25.187028 Y56.049219 Z-2.000000 I1.647119 J-0.922079
G02 X25.207592 Y56.080550 Z-2.000000 I0.395786 J-0.237358
G02 X25.233206 Y56.111484 Z-2.000000 I0.232904 J-0.166778
G01 X25.232982 Y56.111750 Z-2.000000
G03 X25.276684 Y56.147123 Z-2.000000 I-0.154323 J0.235343
G03 X25.336498 Y56.211350 Z-2.000000 I-0.763593 J0.771093
G03 X25.393438 Y56.280995 Z-2.000000 I-1.425651 J1.223684
G03 X25.469310 Y56.381270 Z-2.000000 I-3.623577 J2.820567
G03 X25.618913 Y56.592417 Z-2.000000 I-5.879395 J4.324273
G03 X25.807201 Y56.877360 Z-2.000000 I-9.550201 J6.515376
G03 X26.189173 Y57.507428 Z-2.000000 I-12.855335 J8.224220
G03 X26.410717 Y57.943770 Z-2.000000 I-4.160159 J2.386655
G03 X26.614408 Y58.642480 Z-2.000000 I-2.467831 J1.098477
G03 X26.690014 Y59.637130 Z-2.000000 I-6.793645 J1.016604
G03 X26.615995 Y60.630234 Z-2.000000 I-6.423650 J0.020540
G03 X26.418529 Y61.185960 Z-2.000000 I-1.547995 J-0.237104
G02 X26.185328 Y61.610744 Z-2.000000 I7.265796 J4.265241
G02 X26.004467 Y61.994550 Z-2.000000 I5.733876 J2.936487
G03 X25.921043 Y62.162225 Z-2.000000 I-1.586422 J-0.684708
G03 X25.842357 Y62.283610 Z-2.000000 I-1.062662 J-0.602660
G03 X25.798667 Y62.338673 Z-2.000000 I-0.774441 J-0.569622
G03 X25.760327 Y62.377310 Z-2.000000 I-0.278936 J-0.238449
G03 X25.717698 Y62.407608 Z-2.000000 I-0.173551 J-0.199043
G03 X25.662667 Y62.422210 Z-2.000000 I-0.055031 J-0.096400
G01 X25.645672 Y62.426644 Z-2.000000
G02 X25.621647 Y62.447610 Z-2.000000 I0.037898 J0.067677
G02 X25.605716 Y62.479209 Z-2.000000 I0.083420 J0.061873
G02 X25.598207 Y62.529610 Z-2.000000 I0.165400 J0.050401
G03 X25.583340 Y62.625973 Z-2.000000 I-0.319732 J0.000000
G03 X25.523987 Y62.791330 Z-2.000000 I-2.177891 J-0.688400
G03 X25.450071 Y62.959969 Z-2.000000 I-2.846162 J-1.146984
G03 X25.352112 Y63.150700 Z-2.000000 I-3.088141 J-1.465538
G03 X25.211651 Y63.382786 Z-2.000000 I-3.088977 J-1.710933
G03 X25.129456 Y63.474920 Z-2.000000 I-0.354852 J-0.233841
G03 X25.074025 Y63.506987 Z-2.000000 I-0.119824 J-0.143188
G03 X25.012268 Y63.512020 Z-2.000000 I-0.039944 J-0.108712
G03 X24.959334 Y63.486333 Z-2.000000 I0.022254 J-0.113247
G03 X24.920468 Y63.443620 Z-2.000000 I0.153321 J-0.178549
G02 X24.917114 Y63.481104 Z-2.000000 I1.314285 J0.136483
G02 X24.914568 Y63.543220 Z-2.000000 I0.911189 J0.068461
G03 X24.848258 Y63.835406 Z-2.000000 I-0.695347 J-0.004188
G03 X24.635271 Y64.158450 Z-2.000000 I-1.231605 J-0.580278
G02 X24.373500 Y64.484141 Z-2.000000 I3.228069 J2.862570
G02 X24.125505 Y64.853770 Z-2.000000 I4.785623 J3.478827
G02 X24.018004 Y65.037375 Z-2.000000 I3.837596 J2.370184
G02 X23.947771 Y65.174080 Z-2.000000 I2.133507 J1.182501
G02 X23.888436 Y65.327280 Z-2.000000 I1.011794 J0.479959
G02 X23.883321 Y65.361580 Z-2.000000 I0.112436 J0.034300
G03 X23.868824 Y65.441284 Z-2.000000 I-0.226359 J0.000000
G03 X23.828631 Y65.523690 Z-2.000000 I-0.457277 J-0.172030
G03 X23.773306 Y65.599067 Z-2.000000 I-0.467201 J-0.284922
G03 X23.703631 Y65.664310 Z-2.000000 I-0.361493 J-0.316225
G02 X23.592932 Y65.785656 Z-2.000000 I0.280435 J0.366995
G02 X23.506366 Y65.988530 Z-2.000000 I0.595525 J0.374016
G03 X23.439904 Y66.229636 Z-2.000000 I-5.242535 J-1.315411
G03 X23.197772 Y67.015870 Z-2.000000 I-59.359902 J-17.850347
G02 X23.027572 Y67.808048 Z-2.000000 I4.128050 J1.301286
G02 X22.953631 Y69.084230 Z-2.000000 I10.581319 J1.253309
G02 X23.173037 Y70.857327 Z-2.000000 I7.404064 J-0.016070
G02 X23.844256 Y72.658450 Z-2.000000 I8.295263 J-2.065736
G02 X24.097315 Y73.122390 Z-2.000000 I7.866181 J-3.989671
G02 X24.287616 Y73.424080 Z-2.000000 I4.604825 J-2.693784
G02 X24.508780 Y73.713664 Z-2.000000 I2.690142 J-1.825301
G02 X24.602069 Y73.801030 Z-2.000000 I0.442648 J-0.379165
G02 X24.616572 Y73.810055 Z-2.000000 I0.067484 J-0.092285
G03 X24.625509 Y73.814730 Z-2.000000 I-15.770324 J30.155857
G02 X24.626055 Y73.804802 Z-2.000000 I-0.153679 J-0.013428
G02 X24.625509 Y73.787430 Z-2.000000 I-0.160680 J-0.003646
G02 X24.600077 Y73.658250 Z-2.000000 I-0.593407 J0.049731
G02 X24.436056 Y73.221020 Z-2.000000 I-4.146633 J1.306177
G03 X24.309301 Y72.870382 Z-2.000000 I2.600122 J-1.138173
G03 X24.223166 Y72.431960 Z-2.000000 I2.465598 J-0.712076
G03 X24.192545 Y71.962305 Z-2.000000 I5.610394 J-0.601620
G03 X24.178246 Y70.842120 Z-2.000000 I52.702603 J-1.232914
G03 X24.185171 Y69.748812 Z-2.000000 I64.803854 J-0.136193
G03 X24.205586 Y69.371410 Z-2.000000 I4.812945 J0.071092
G03 X24.232655 Y69.184633 Z-2.000000 I1.859961 J0.174207
G03 X24.262226 Y69.094070 Z-2.000000 I0.386713 J0.076162
G03 X24.287428 Y69.052161 Z-2.000000 I0.211845 J0.098861
G03 X24.318866 Y69.021770 Z-2.000000 I0.112250 J0.084662
G03 X24.360415 Y69.001995 Z-2.000000 I0.079038 J0.112526
G03 X24.400896 Y68.996370 Z-2.000000 I0.040481 J0.142861
G03 X24.505101 Y69.028595 Z-2.000000 I0.000000 J0.184591
G03 X24.582537 Y69.117470 Z-2.000000 I-0.132299 J0.193445
G03 X24.619565 Y69.229827 Z-2.000000 I-0.368349 J0.183672
G03 X24.639177 Y69.418250 Z-2.000000 I-1.325668 J0.233214
G02 X24.686715 Y69.695299 Z-2.000000 I1.033176 J-0.034676
G02 X24.881365 Y70.191690 Z-2.000000 I3.774643 J-1.193794
G02 X25.128282 Y70.660406 Z-2.000000 I5.475338 J-2.584985
G02 X25.484880 Y71.228800 Z-2.000000 I9.142646 J-5.339836
G02 X26.331267 Y72.348841 Z-2.000000 I10.571063 J-7.108476
G02 X27.211443 Y73.234660 Z-2.000000 I5.968195 J-5.049977
G02 X29.602197 Y74.866209 Z-2.000000 I8.594950 J-10.027026
G02 X32.223162 Y75.902620 Z-2.000000 I5.898134 J-11.083439
G02 X36.345075 Y76.207472 Z-2.000000 I2.852410 J-10.548823
G02 X39.771990 Y75.021760 Z-2.000000 I-0.979799 J-8.376837
G02 X40.337770 Y74.648450 Z-2.000000 I-5.294142 J-8.639068
G02 X40.729021 Y74.349890 Z-2.000000 I-4.052503 J-5.716290
G02 X40.883712 Y74.212988 Z-2.000000 I-1.742335 J-2.124584
G02 X40.959490 Y74.135050 Z-2.000000 I-1.004011 J-1.051991
G02 X40.918070 Y74.151817 Z-2.000000 I1.706553 J4.275287
G02 X40.861830 Y74.176050 Z-2.000000 I0.670185 J1.632746
G02 X40.707571 Y74.250017 Z-2.000000 I1.586111 J3.505689
G02 X40.504409 Y74.355740 Z-2.000000 I4.942545 J9.745880
G03 X38.187467 Y74.972417 Z-2.000000 I-2.474302 J-4.635421
G03 X35.389174 Y74.513940 Z-2.000000 I-0.222110 J-7.413216
G03 X35.066844 Y74.381110 Z-2.000000 I1.671606 J-4.513896
G03 X34.924330 Y74.297150 Z-2.000000 I0.325992 J-0.716268
G03 X34.862626 Y74.240781 Z-2.000000 I0.244307 J-0.329385
G03 X34.826670 Y74.183860 Z-2.000000 I0.152851 J-0.136370
G03 X34.819827 Y74.139086 Z-2.000000 I0.085095 J-0.035916
G03 X34.824670 Y74.094060 Z-2.000000 I2.029856 J0.195569
G02 X34.799309 Y74.111526 Z-2.000000 I0.088588 J0.155774
G03 X34.771940 Y74.123360 Z-2.000000 I-0.034182 J-0.041489
G03 X34.717877 Y74.123748 Z-2.000000 I-0.028530 J-0.208554
G03 X34.650846 Y74.111660 Z-2.000000 I0.072742 J-0.595263
G03 X34.521646 Y74.069157 Z-2.000000 I0.194803 J-0.809785
G03 X34.305143 Y73.967130 Z-2.000000 I1.140587 J-2.701063
G03 X33.887467 Y73.726376 Z-2.000000 I2.658458 J-5.094751
G03 X33.064909 Y73.181970 Z-2.000000 I13.332370 J-21.037861
G03 X33.030669 Y73.135943 Z-2.000000 I0.050647 J-0.073426
G03 X33.027799 Y73.086270 Z-2.000000 I0.094035 J-0.030353
G03 X33.044967 Y73.041430 Z-2.000000 I0.140090 J0.027931
G03 X33.076629 Y73.002270 Z-2.000000 I0.149549 J0.088535
G03 X33.127486 Y72.980208 Z-2.000000 I0.057125 J0.062036
G03 X33.170379 Y72.980770 Z-2.000000 I0.018244 J0.244752
G03 X33.215489 Y72.988109 Z-2.000000 I-0.034789 J0.356126
G03 X33.271942 Y73.004170 Z-2.000000 I-0.126122 J0.550562
G03 X33.384525 Y73.050061 Z-2.000000 I-0.339411 J0.993704
G03 X33.527801 Y73.127210 Z-2.000000 I-0.715602 J1.500589
G02 X35.481978 Y73.645104 Z-2.000000 I1.864486 J-3.089486
G02 X38.518035 Y72.994400 Z-2.000000 I-0.208362 J-8.380352
G02 X42.775902 Y70.026520 Z-2.000000 I-4.788173 J-11.407562
G02 X45.404754 Y65.613540 Z-2.000000 I-8.864076 J-8.269915
G02 X46.000268 Y63.654631 Z-2.000000 I-33.869975 J-11.366548
G02 X46.197723 Y62.761980 Z-2.000000 I-9.045288 J-2.468986
G02 X46.227700 Y62.544827 Z-2.000000 I-3.407994 J-0.581111
G02 X46.234833 Y62.427990 Z-2.000000 I-1.308359 J-0.138508
G02 X46.233828 Y62.379507 Z-2.000000 I-0.651764 J-0.010746
G02 X46.230933 Y62.353790 Z-2.000000 I-0.238503 J0.013830
G02 X46.216689 Y62.367724 Z-2.000000 I0.309228 J0.330353
G02 X46.191873 Y62.396790 Z-2.000000 I0.201958 J0.197555
G02 X46.128927 Y62.492721 Z-2.000000 I0.788940 J0.586288
G02 X46.008279 Y62.717110 Z-2.000000 I3.811963 J2.194218
G03 X45.184806 Y63.964258 Z-2.000000 I-5.617674 J-2.813825
G03 X43.771951 Y65.365540 Z-2.000000 I-8.764910 J-7.424399
G03 X43.193462 Y65.800751 Z-2.000000 I-4.674472 J-5.611301
G03 X42.549294 Y66.207340 Z-2.000000 I-6.600026 J-9.742994
G03 X42.240692 Y66.377664 Z-2.000000 I-3.385775 J-5.769772
G03 X42.066873 Y66.457340 Z-2.000000 I-0.913319 J-1.763048
G03 X41.988210 Y66.485633 Z-2.000000 I-0.423582 J-1.054189
G03 X41.922341 Y66.490540 Z-2.000000 I-0.043222 J-0.135648
G03 X41.904474 Y66.485862 Z-2.000000 I0.015283 J-0.094829
G03 X41.881321 Y66.471040 Z-2.000000 I0.022026 J-0.059901
G03 X41.865598 Y66.445130 Z-2.000000 I0.044495 J-0.044728
G03 X41.861791 Y66.420240 Z-2.000000 I0.079823 J-0.024944
G03 X41.870697 Y66.380807 Z-2.000000 I0.091547 J-0.000047
G03 X41.887181 Y66.351840 Z-2.000000 I0.207301 J0.098798
G02 X41.895917 Y66.334432 Z-2.000000 I-0.063816 J-0.042920
G01 X41.896981 Y66.330340 Z-2.000000
G01 X41.894990 Y66.329208 Z-2.000000
G02 X41.836431 Y66.316640 Z-2.000000 I-0.058559 J0.130135
G02 X41.741510 Y66.352894 Z-2.000000 I-0.000000 J0.142387
G02 X41.711431 Y66.420150 Z-2.000000 I0.060151 J0.067256
G03 X41.682852 Y66.515046 Z-2.000000 I-0.171839 J-0.000000
G03 X41.607915 Y66.584210 Z-2.000000 I-0.178544 J-0.118269
G03 X41.511235 Y66.619449 Z-2.000000 I-0.160430 J-0.289907
G03 X41.371587 Y66.633010 Z-2.000000 I-0.139648 J-0.712245
G03 X41.246775 Y66.627928 Z-2.000000 I-0.000000 J-1.535145
G03 X41.158697 Y66.615410 Z-2.000000 I0.060529 J-0.742028
G03 X41.117013 Y66.605582 Z-2.000000 I0.185229 J-0.878910
G03 X41.084477 Y66.593910 Z-2.000000 I0.049100 J-0.188056
G03 X41.069640 Y66.585565 Z-2.000000 I0.048217 J-0.103088
G03 X41.053227 Y66.572410 Z-2.000000 I0.065976 J-0.099132
G03 X41.039925 Y66.554742 Z-2.000000 I0.047619 J-0.049693
G03 X41.031747 Y66.521610 Z-2.000000 I0.063027 J-0.033132
G02 X41.031746 Y66.519970 Z-2.000000 I-1.652683 J-0.000000
G01 X41.033747 Y66.506010 Z-2.000000
G01 X41.035845 Y66.500328 Z-2.000000
G02 X41.037647 Y66.496010 Z-2.000000 I-0.048299 J-0.022688
G02 X41.040737 Y66.488254 Z-2.000000 I-0.072930 J-0.033548
G01 X41.043547 Y66.482310 Z-2.000000
G03 X41.050490 Y66.472249 Z-2.000000 I0.225566 J0.148229
G03 X41.059177 Y66.460810 Z-2.000000 I0.254674 J0.184392
G03 X41.077781 Y66.438975 Z-2.000000 I0.325414 J0.258417
G03 X41.108007 Y66.406110 Z-2.000000 I4.841538 J4.422453
G03 X41.171519 Y66.339216 Z-2.000000 I2.712757 J2.512038
G03 X41.279882 Y66.230330 Z-2.000000 I4.986545 J4.854197
G03 X41.506142 Y66.012634 Z-2.000000 I10.284059 J10.462163
G03 X41.842382 Y65.701030 Z-2.000000 I19.587354 J20.798801
G02 X42.552355 Y64.926773 Z-2.000000 I-3.968965 J-4.352075
G02 X43.135351 Y64.009630 Z-2.000000 I-4.991261 J-3.816640
G02 X43.345069 Y63.586215 Z-2.000000 I-10.610104 J-5.518846
G02 X43.520117 Y63.195170 Z-2.000000 I-10.075772 J-4.745032
G02 X43.680985 Y62.784502 Z-2.000000 I-7.172035 J-3.046288
G02 X43.727148 Y62.619000 Z-2.000000 I-1.108003 J-0.398243
G01 X43.775978 Y62.370950 Z-2.000000
G01 X43.033791 Y63.099470 Z-2.000000
G03 X42.107172 Y63.883864 Z-2.000000 I-5.876842 J-6.002910
G03 X41.315041 Y64.351420 Z-2.000000 I-2.800482 J-3.839772
G03 X39.120962 Y65.019047 Z-2.000000 I-3.450698 J-7.401213
G03 X37.500587 Y64.941270 Z-2.000000 I-0.620738 J-3.985805
G03 X37.261322 Y64.860157 Z-2.000000 I0.409387 J-1.601050
G03 X37.104103 Y64.765480 Z-2.000000 I0.260567 J-0.610568
G03 X36.979798 Y64.630281 Z-2.000000 I0.395718 J-0.488575
G03 X36.863869 Y64.423690 Z-2.000000 I1.147286 J-0.779626
G03 X36.779082 Y64.233972 Z-2.000000 I16.869985 J-7.653213
G03 X36.736915 Y64.130720 Z-2.000000 I1.893348 J-0.833452
G03 X36.718892 Y64.079447 Z-2.000000 I1.145930 J-0.431601
G03 X36.709575 Y64.042820 Z-2.000000 I0.269430 J-0.088037
G03 X36.706415 Y64.006327 Z-2.000000 I0.190921 J-0.034915
G03 X36.727155 Y63.954920 Z-2.000000 I0.075603 J0.000614
G03 X36.754984 Y63.937422 Z-2.000000 I0.048340 J0.046002
G03 X36.779885 Y63.933420 Z-2.000000 I0.025421 J0.078703
G03 X36.801789 Y63.935891 Z-2.000000 I0.000242 J0.096159
G03 X36.818945 Y63.941420 Z-2.000000 I-0.024048 J0.104005
G03 X36.853166 Y63.957486 Z-2.000000 I-0.084641 J0.224768
G03 X36.897075 Y63.984420 Z-2.000000 I-0.392172 J0.688590
G03 X36.981513 Y64.044184 Z-2.000000 I-0.861737 J1.307044
G03 X37.135356 Y64.162150 Z-2.000000 I-11.296095 J14.890873
G02 X37.353543 Y64.307024 Z-2.000000 I1.097420 J-1.416024
G02 X37.527934 Y64.375040 Z-2.000000 I0.326586 J-0.579786
G02 X37.723319 Y64.400353 Z-2.000000 I0.221187 J-0.940578
G02 X38.147075 Y64.396540 Z-2.000000 I0.158507 J-5.933717
G02 X38.485116 Y64.369305 Z-2.000000 I-0.212307 J-4.746708
G02 X38.664653 Y64.337940 Z-2.000000 I-0.185709 J-1.592534
G02 X38.753732 Y64.312728 Z-2.000000 I-0.234195 J-0.997435
G02 X38.799418 Y64.293040 Z-2.000000 I-0.091494 J-0.275162
G02 X38.834936 Y64.264051 Z-2.000000 I-0.056878 J-0.105940
G01 X38.838478 Y64.257840 Z-2.000000
G02 X38.841622 Y64.244383 Z-2.000000 I-0.056440 J-0.020283
G03 X38.842378 Y64.238340 Z-2.000000 I0.292138 J0.033467
G02 X38.824267 Y64.238632 Z-2.000000 I-0.006903 J0.133629
G02 X38.699800 Y64.261740 Z-2.000000 I0.053267 J0.633679
G03 X38.582910 Y64.289469 Z-2.000000 I-0.329031 J-1.126792
G03 X38.510347 Y64.291040 Z-2.000000 I-0.041148 J-0.223935
G03 X38.473121 Y64.279466 Z-2.000000 I0.020818 J-0.132610
G03 X38.436127 Y64.240240 Z-2.000000 I0.032445 J-0.067656
G01 X38.435810 Y64.203589 Z-2.000000
G03 X38.447847 Y64.175840 Z-2.000000 I0.367157 J0.142782
G02 X38.418082 Y64.172490 Z-2.000000 I-0.033147 J0.160599
G02 X38.320894 Y64.179840 Z-2.000000 I-0.010474 J0.507712
G03 X38.013827 Y64.152870 Z-2.000000 I-0.103257 J-0.585897
G03 X37.631441 Y63.966950 Z-2.000000 I0.709073 J-1.944561
G03 X37.465168 Y63.849813 Z-2.000000 I0.921226 J-1.484237
G03 X37.344331 Y63.736480 Z-2.000000 I0.634309 J-0.797393
G03 X37.254783 Y63.606795 Z-2.000000 I0.444956 J-0.403003
G03 X37.236909 Y63.482570 Z-2.000000 I0.172529 J-0.088223
G02 X37.241635 Y63.441423 Z-2.000000 I-0.276291 J-0.052578
G02 X37.240809 Y63.425970 Z-2.000000 I-0.082328 J-0.003349
G01 X37.238534 Y63.418196 Z-2.000000
G01 X37.238809 Y63.417970 Z-2.000000
G01 X37.238653 Y63.418375 Z-2.000000
G02 X37.225139 Y63.417970 Z-2.000000 I-0.009156 J0.079783
G02 X37.204800 Y63.420905 Z-2.000000 I0.006129 J0.114414
G02 X37.160689 Y63.433570 Z-2.000000 I0.114082 J0.480489
G03 X37.078589 Y63.454192 Z-2.000000 I-0.151292 J-0.428584
G03 X37.014204 Y63.453070 Z-2.000000 I-0.028929 J-0.187813
G03 X36.983151 Y63.442323 Z-2.000000 I0.019045 J-0.105270
G03 X36.951704 Y63.413970 Z-2.000000 I0.040654 J-0.076705
G03 X36.938186 Y63.372727 Z-2.000000 I0.066080 J-0.044496
G03 X36.943904 Y63.335870 Z-2.000000 I0.096284 J-0.003934
G02 X36.947942 Y63.313840 Z-2.000000 I-0.064742 J-0.023252
G01 X36.947804 Y63.312470 Z-2.000000
G03 X36.850639 Y63.288863 Z-2.000000 I0.011025 J-0.257141
G03 X36.734913 Y63.218770 Z-2.000000 I0.257296 J-0.555388
G03 X36.624996 Y63.122398 Z-2.000000 I0.706548 J-0.916725
G03 X36.488820 Y62.974630 Z-2.000000 I1.641954 J-1.649773
G03 X36.243482 Y62.645427 Z-2.000000 I2.575236 J-2.175209
G03 X35.973195 Y62.181660 Z-2.000000 I4.334341 J-2.836735
G03 X35.641098 Y60.878348 Z-2.000000 I2.663555 J-1.372667
G03 X35.918505 Y59.722680 Z-2.000000 I2.321988 J-0.053758
G03 X36.260388 Y59.296762 Z-2.000000 I1.327796 J0.715645
G03 X36.807177 Y58.955100 Z-2.000000 I1.374822 J1.591870
G02 X37.098231 Y58.815076 Z-2.000000 I-1.459327 J-3.405865
G02 X37.246630 Y58.720720 Z-2.000000 I-0.559237 J-1.043418
G02 X37.359880 Y58.601691 Z-2.000000 I-0.290692 J-0.389967
G02 X37.373583 Y58.556660 Z-2.000000 I-0.067136 J-0.045031
G02 X37.364924 Y58.490729 Z-2.000000 I-0.255337 J-0.000000
G02 X37.348193 Y58.451190 Z-2.000000 I-0.149536 J0.039967
G02 X37.323010 Y58.424384 Z-2.000000 I-0.074424 J0.044685
G01 X37.314993 Y58.421890 Z-2.000000
G02 X37.268581 Y58.440173 Z-2.000000 I0.000000 J0.068050
G01 X37.254443 Y58.472690 Z-2.000000
G03 X37.201554 Y58.587475 Z-2.000000 I-0.151003 J0.000000
G03 X37.078661 Y58.632840 Z-2.000000 I-0.122893 J-0.143774
G03 X37.012531 Y58.617694 Z-2.000000 I-0.000000 J-0.151940
G03 X36.965380 Y58.570340 Z-2.000000 I0.043950 J-0.090913
G03 X36.957742 Y58.508627 Z-2.000000 I0.088457 J-0.042278
G03 X36.981010 Y58.449250 Z-2.000000 I0.180605 J0.036527
G01 X36.980266 Y58.448778 Z-2.000000
G01 X36.977110 Y58.447250 Z-2.000000
G02 X36.942807 Y58.434677 Z-2.000000 I-0.061449 J0.114575
G02 X36.836485 Y58.423850 Z-2.000000 I-0.102695 J0.481001
G02 X36.799284 Y58.424655 Z-2.000000 I0.007764 J1.218480
G02 X36.772035 Y58.425850 Z-2.000000 I0.072827 J1.972232
G03 X36.838548 Y58.472083 Z-2.000000 I-0.292506 J0.491776
G03 X36.877504 Y58.519550 Z-2.000000 I-0.094499 J0.117273
G03 X36.883921 Y58.535160 Z-2.000000 I-0.084060 J0.043678
G03 X36.887304 Y58.558650 Z-2.000000 I-0.072135 J0.022378
G03 X36.882154 Y58.583705 Z-2.000000 I-0.070113 J-0.001355
G03 X36.867774 Y58.605550 Z-2.000000 I-0.062191 J-0.025283
G03 X36.828756 Y58.627208 Z-2.000000 I-0.056908 J-0.056548
G03 X36.797464 Y58.630950 Z-2.000000 I-0.033255 J-0.145373
G03 X36.588378 Y58.581348 Z-2.000000 I-0.006282 J-0.439004
G03 X36.373636 Y58.439540 Z-2.000000 I0.575433 J-1.104882
G03 X36.282994 Y58.355018 Z-2.000000 I0.625112 J-0.761236
G03 X36.221293 Y58.275480 Z-2.000000 I0.375346 J-0.354874
G03 X36.198105 Y58.232698 Z-2.000000 I0.312305 J-0.196941
G03 X36.184183 Y58.189580 Z-2.000000 I0.174272 J-0.080078
G03 X36.185124 Y58.158221 Z-2.000000 I0.070005 J-0.013593
G03 X36.193983 Y58.125180 Z-2.000000 I1.626754 J0.418465
G02 X36.155940 Y58.133397 Z-2.000000 I0.011072 J0.143431
G03 X36.119763 Y58.133180 Z-2.000000 I-0.017795 J-0.048990
G03 X36.054099 Y58.096379 Z-2.000000 I0.101387 J-0.257890
G03 X35.981091 Y58.033580 Z-2.000000 I0.458846 J-0.607273
G03 X35.850018 Y57.882567 Z-2.000000 I0.850121 J-0.870256
G03 X35.693982 Y57.644910 Z-2.000000 I2.223889 J-1.630173
G03 X35.428606 Y57.095763 Z-2.000000 I3.325937 J-1.945955
G03 X35.334607 Y56.633190 Z-2.000000 I1.296702 J-0.504340
G02 X35.318198 Y56.323293 Z-2.000000 I-6.965825 J0.213449
G02 X35.266247 Y55.742570 Z-2.000000 I-20.681830 J1.557507
G03 X35.242880 Y55.507285 Z-2.000000 I27.828828 J-2.882603
G03 X35.236947 Y55.394910 Z-2.000000 I1.333463 J-0.126744
G03 X35.237258 Y55.367795 Z-2.000000 I0.613599 J-0.006530
G03 X35.238947 Y55.346110 Z-2.000000 I0.246020 J0.008258
G03 X35.242124 Y55.325912 Z-2.000000 I0.239612 J0.027338
G03 X35.252617 Y55.299210 Z-2.000000 I0.080309 J0.016146
G01 X35.257401 Y55.292558 Z-2.000000
G03 X35.264337 Y55.285510 Z-2.000000 I0.089551 J0.081192
G02 X35.270610 Y55.279847 Z-2.000000 I-0.044339 J-0.055424
G01 X35.272137 Y55.277510 Z-2.000000
G02 X35.278081 Y55.273375 Z-2.000000 I-0.119968 J-0.178791
G01 X35.283857 Y55.271510 Z-2.000000
G01 X35.295098 Y55.268396 Z-2.000000
G03 X35.307297 Y55.267510 Z-2.000000 I0.012199 J0.083547
G01 X35.310568 Y55.267662 Z-2.000000
G03 X35.328777 Y55.271510 Z-2.000000 I-0.007481 J0.080404
G03 X35.357389 Y55.288000 Z-2.000000 I-0.026483 J0.079019
G03 X35.371747 Y55.302710 Z-2.000000 I-0.090411 J0.102609
G03 X35.419671 Y55.375755 Z-2.000000 I-0.303458 J0.251337
G03 X35.524091 Y55.591780 Z-2.000000 I-5.544998 J2.813547
G03 X35.627307 Y55.821425 Z-2.000000 I-13.437968 J6.177834
G03 X35.815107 Y56.249980 Z-2.000000 I-243.298131 J106.872743
G02 X37.076626 Y57.745957 Z-2.000000 I3.151568 J-1.377745
G02 X38.539716 Y58.052710 Z-2.000000 I1.121079 J-1.704542
G02 X39.615449 Y57.565662 Z-2.000000 I-0.389820 J-2.292489
G02 X41.281903 Y55.810530 Z-2.000000 I-5.908075 J-7.278263
G03 X41.430442 Y55.622509 Z-2.000000 I2.518495 J1.836957
G03 X41.524091 Y55.527320 Z-2.000000 I0.723885 J0.618514
G03 X41.571476 Y55.490012 Z-2.000000 I0.354936 J0.402057
G03 X41.619791 Y55.468720 Z-2.000000 I0.077879 J0.111257
G03 X41.651011 Y55.468092 Z-2.000000 I0.017272 J0.082303
G03 X41.690101 Y55.488220 Z-2.000000 I-0.011994 J0.071314
G03 X41.708886 Y55.523339 Z-2.000000 I-0.048400 J0.048473
G03 X41.711581 Y55.550720 Z-2.000000 I-0.137756 J0.027381
G03 X41.702136 Y55.616559 Z-2.000000 I-0.234197 J-0.000000
G03 X41.670561 Y55.703060 Z-2.000000 I-0.679961 J-0.199190
G03 X41.627606 Y55.790385 Z-2.000000 I-1.060160 J-0.467263
G03 X41.561186 Y55.906190 Z-2.000000 I-2.714820 J-1.480137
G03 X41.414158 Y56.133076 Z-2.000000 I-3.554849 J-2.142552
G03 X41.197905 Y56.429630 Z-2.000000 I-6.694839 J-4.654884
G03 X40.704935 Y57.028205 Z-2.000000 I-8.464813 J-6.469104
G03 X40.235014 Y57.499940 Z-2.000000 I-4.288637 J-3.802222
G03 X39.091473 Y58.321380 Z-2.000000 I-4.421429 J-4.948456
G03 X38.328764 Y58.580020 Z-2.000000 I-1.054876 J-1.856843
G02 X38.039186 Y58.643398 Z-2.000000 I0.258394 J1.873850
G02 X37.799467 Y58.747990 Z-2.000000 I0.323129 J1.067602
G02 X37.576208 Y58.903482 Z-2.000000 I0.866848 J1.482666
G02 X37.166655 Y59.261660 Z-2.000000 I5.581404 J6.795207
G01 X36.510405 Y59.872990 Z-2.000000
G01 X36.473295 Y60.726500 Z-2.000000
G02 X36.498116 Y61.453253 Z-2.000000 I4.583752 J0.207251
G02 X36.633451 Y61.935490 Z-2.000000 I1.560452 J-0.177818
G02 X36.907757 Y62.369914 Z-2.000000 I1.803899 J-0.835212
G02 X37.568998 Y63.089780 Z-2.000000 I7.497523 J-6.223308
G02 X38.790654 Y63.903370 Z-2.000000 I2.724600 J-2.767166
G02 X39.977201 Y64.097600 Z-2.000000 I0.998639 J-2.379253
G02 X41.182963 Y63.774208 Z-2.000000 I-0.241489 J-3.309919
G02 X42.877592 Y62.693300 Z-2.000000 I-3.769352 J-7.778384
G02 X43.552576 Y62.096456 Z-2.000000 I-7.173857 J-8.793174
G02 X43.818998 Y61.775330 Z-2.000000 I-1.263057 J-1.318976
G02 X43.971505 Y61.413693 Z-2.000000 I-0.923270 J-0.602331
G02 X44.026029 Y60.941350 Z-2.000000 I-2.209629 J-0.494381
G03 X44.041300 Y60.644002 Z-2.000000 I3.595465 J0.035583
G03 X44.068999 Y60.490170 Z-2.000000 I0.912022 J0.084811
G03 X44.095087 Y60.416853 Z-2.000000 I0.479224 J0.129223
G03 X44.127589 Y60.365170 Z-2.000000 I0.198258 J0.088616
G03 X44.177123 Y60.326442 Z-2.000000 I0.117986 J0.099866
G03 X44.236963 Y60.312470 Z-2.000000 I0.059840 J0.121157
G03 X44.300984 Y60.327313 Z-2.000000 I-0.000000 J0.145492
G03 X44.354151 Y60.365170 Z-2.000000 I-0.088419 J0.180439
G03 X44.394445 Y60.415706 Z-2.000000 I-0.200426 J0.201135
G03 X44.430321 Y60.484320 Z-2.000000 I-0.425203 J0.266015
G03 X44.478094 Y60.634901 Z-2.000000 I-0.750436 J0.320951
G03 X44.514301 Y60.863220 Z-2.000000 I-2.133256 J0.455323
G03 X44.528653 Y61.343269 Z-2.000000 I-3.214362 J0.336338
G03 X44.455711 Y61.951110 Z-2.000000 I-4.083884 J-0.181776
G03 X43.784266 Y63.883818 Z-2.000000 I-7.194565 J-1.416485
G03 X42.664696 Y65.439390 Z-2.000000 I-5.723584 J-2.938685
G02 X42.417261 Y65.711959 Z-2.000000 I3.635213 J3.548595
G02 X42.330711 Y65.830020 Z-2.000000 I0.820099 J0.691967
G02 X42.317175 Y65.856291 Z-2.000000 I0.141302 J0.089429
G02 X42.311181 Y65.871020 Z-2.000000 I8.891921 J3.627017
G03 X42.329781 Y65.866655 Z-2.000000 I0.119038 J0.465438
G02 X42.363911 Y65.855420 Z-2.000000 I-0.035041 J-0.163905
G02 X42.430650 Y65.822887 Z-2.000000 I-0.356802 J-0.816680
G02 X42.537739 Y65.761720 Z-2.000000 I-1.235243 J-2.286937
G02 X42.745364 Y65.627048 Z-2.000000 I-1.986173 J-3.289491
G02 X43.092426 Y65.373050 Z-2.000000 I-5.080575 J-7.306183
G02 X44.382504 Y64.159734 Z-2.000000 I-5.474651 J-7.113516
G02 X45.645161 Y62.443360 Z-2.000000 I-9.686263 J-8.448364
G02 X46.207355 Y61.213145 Z-2.000000 I-4.710438 J-2.896179
G02 X46.481098 Y59.794920 Z-2.000000 I-5.982546 J-1.890272
G03 X46.511299 Y59.431025 Z-2.000000 I24.445348 J1.845638
G03 X46.537738 Y59.177730 Z-2.000000 I9.223774 J0.834737
G03 X46.554678 Y59.054330 Z-2.000000 I3.388530 J0.402310
G03 X46.567038 Y58.978520 Z-2.000000 I5.470486 J0.852977
G03 X46.573492 Y58.941075 Z-2.000000 I53.154006 J9.142489
G03 X46.578758 Y58.916020 Z-2.000000 I0.349318 J0.060336
G02 X46.581476 Y58.903890 Z-2.000000 I-0.165708 J-0.043498
G03 X46.584658 Y58.892620 Z-2.000000 I0.063298 J0.011789
G01 X46.587121 Y58.887310 Z-2.000000
G02 X46.590558 Y58.880920 Z-2.000000 I-0.081454 J-0.047933
G01 X46.592070 Y58.878535 Z-2.000000
G01 X46.594458 Y58.874920 Z-2.000000
G01 X46.600725 Y58.867333 Z-2.000000
G01 X46.602258 Y58.864920 Z-2.000000
G03 X46.611708 Y58.856957 Z-2.000000 I0.045950 J0.044943
G03 X46.621788 Y58.851220 Z-2.000000 I0.038125 J0.055261
G03 X46.633704 Y58.847060 Z-2.000000 I0.038142 J0.090098
G03 X46.647178 Y58.845220 Z-2.000000 I0.013474 J0.048427
G01 X46.649874 Y58.845401 Z-2.000000
G03 X46.664758 Y58.849220 Z-2.000000 I-0.010305 J0.071074
G03 X46.672572 Y58.852417 Z-2.000000 I-0.054169 J0.143548
G03 X46.678428 Y58.855220 Z-2.000000 I-0.042916 J0.097177
G03 X46.699038 Y58.868867 Z-2.000000 I-0.051932 J0.100814
G03 X46.713588 Y58.882520 Z-2.000000 I-0.107306 J0.128938
G03 X46.739873 Y58.914287 Z-2.000000 I-0.234670 J0.220933
G03 X46.774138 Y58.964520 Z-2.000000 I-0.860257 J0.623598
G03 X46.838679 Y59.074162 Z-2.000000 I-1.440042 J0.921503
G03 X46.926482 Y59.247730 Z-2.000000 I-3.232077 J1.744002
G03 X46.996428 Y59.455779 Z-2.000000 I-0.846159 J0.400262
G03 X47.063200 Y59.864910 Z-2.000000 I-4.505636 J0.945352
G03 X47.100098 Y60.280814 Z-2.000000 I-7.342652 J0.861014
G03 X47.119840 Y60.792650 Z-2.000000 I-11.785947 J0.710890
G03 X47.094401 Y61.888364 Z-2.000000 I-13.682133 J0.230494
G03 X46.987027 Y62.589520 Z-2.000000 I-3.996289 J-0.253185
G02 X46.870797 Y63.063440 Z-2.000000 I1917.909552 J470.619524
G02 X46.639371 Y64.011400 Z-2.000000 I507.692505 J124.445804
G03 X46.167398 Y65.588935 Z-2.000000 I-15.333883 J-3.728279
G03 X45.522184 Y67.140300 Z-2.000000 I-15.449192 J-5.515478
G03 X45.059537 Y68.021714 Z-2.000000 I-11.824998 J-5.644722
G03 X44.594449 Y68.773120 Z-2.000000 I-11.653265 J-6.693227
G03 X44.351666 Y69.121868 Z-2.000000 I-8.414259 J-5.598760
G03 X44.176481 Y69.343430 Z-2.000000 I-2.864902 J-2.085183
G03 X44.083384 Y69.445452 Z-2.000000 I-1.693694 J-1.452047
G03 X44.014371 Y69.509450 Z-2.000000 I-0.644265 J-0.625537
G03 X43.941318 Y69.560546 Z-2.000000 I-0.334945 J-0.401107
G03 X43.869840 Y69.579750 Z-2.000000 I-0.071478 J-0.123420
G02 X43.817400 Y69.591690 Z-2.000000 I-0.000000 J0.121130
G01 X43.815150 Y69.593450 Z-2.000000
G01 X43.815007 Y69.594247 Z-2.000000
G02 X43.822950 Y69.607150 Z-2.000000 I0.218874 J-0.125838
G03 X43.842456 Y69.657412 Z-2.000000 I-0.102152 J0.068559
G03 X43.842480 Y69.706750 Z-2.000000 I-0.164564 J0.024750
G03 X43.829757 Y69.754241 Z-2.000000 I-0.214743 J-0.032080
G03 X43.807320 Y69.802450 Z-2.000000 I-0.409977 J-0.161482
G03 X43.746210 Y69.893045 Z-2.000000 I-0.493847 J-0.267212
G03 X43.660836 Y69.984100 Z-2.000000 I-0.772387 J-0.638645
G03 X43.565427 Y70.063218 Z-2.000000 I-0.679424 J-0.722238
G03 X43.473336 Y70.116910 Z-2.000000 I-0.308506 J-0.423316
G03 X43.425090 Y70.135526 Z-2.000000 I-0.184710 J-0.406871
G03 X43.377636 Y70.144210 Z-2.000000 I-0.057103 J-0.178044
G01 X43.350682 Y70.137624 Z-2.000000
G02 X43.322946 Y70.124710 Z-2.000000 I-0.082540 J0.141038
G03 X43.318841 Y70.187928 Z-2.000000 I-0.178344 J0.020161
G03 X43.291696 Y70.257520 Z-2.000000 I-0.280474 J-0.069310
G03 X43.240822 Y70.339514 Z-2.000000 I-0.784840 J-0.430188
G03 X43.158884 Y70.450880 Z-2.000000 I-2.263296 J-1.579390
G03 X42.977231 Y70.669316 Z-2.000000 I-3.266254 J-2.531494
G03 X42.731149 Y70.931350 Z-2.000000 I-5.177942 J-4.616150
G03 X42.471813 Y71.180173 Z-2.000000 I-4.890872 J-4.837966
G03 X42.256540 Y71.362990 Z-2.000000 I-2.753216 J-3.023842
G03 X42.147286 Y71.445081 Z-2.000000 I-1.685850 J-2.129920
G03 X42.067087 Y71.495800 Z-2.000000 I-0.498066 J-0.698801
G03 X42.025060 Y71.517248 Z-2.000000 I-0.303157 J-0.542138
G03 X41.988957 Y71.531000 Z-2.000000 I-0.116208 J-0.250807
G03 X41.952345 Y71.538028 Z-2.000000 I-0.059070 J-0.208856
G03 X41.908877 Y71.533000 Z-2.000000 I-0.010429 J-0.100251
G02 X41.862016 Y71.526182 Z-2.000000 I-0.040681 J0.115153
G01 X41.844427 Y71.531000 Z-2.000000
G01 X41.833510 Y71.541788 Z-2.000000
G02 X41.826847 Y71.568100 Z-2.000000 I0.048622 J0.026312
G03 X41.767277 Y71.742981 Z-2.000000 I-0.286485 J-0.000000
G03 X41.600285 Y71.902080 Z-2.000000 I-0.599412 J-0.461960
G03 X41.388871 Y72.011295 Z-2.000000 I-0.519653 J-0.746689
G03 X41.153019 Y72.052470 Z-2.000000 I-0.235852 J-0.654904
G02 X41.049747 Y72.068038 Z-2.000000 I-0.000000 J0.350318
G02 X41.014347 Y72.087670 Z-2.000000 I0.029016 J0.094053
G02 X40.994601 Y72.117493 Z-2.000000 I0.043488 J0.050242
G02 X40.987007 Y72.185370 Z-2.000000 I0.162829 J0.052580
G03 X40.980819 Y72.285180 Z-2.000000 I-0.329589 J0.029663
G03 X40.940137 Y72.357240 Z-2.000000 I-0.136671 J-0.029644
G03 X40.863601 Y72.390140 Z-2.000000 I-0.083263 J-0.088223
G03 X40.770215 Y72.376740 Z-2.000000 I-0.013298 J-0.239433
G02 X40.717449 Y72.368621 Z-2.000000 I-0.047837 J0.135380
G02 X40.697945 Y72.372740 Z-2.000000 I0.001979 J0.057611
G01 X40.687429 Y72.381301 Z-2.000000
G01 X40.682315 Y72.396140 Z-2.000000
G03 X40.672567 Y72.439080 Z-2.000000 I-0.103786 J-0.000984
G03 X40.653015 Y72.472340 Z-2.000000 I-0.185268 J-0.086535
G03 X40.628637 Y72.501657 Z-2.000000 I-0.228243 J-0.164997
G03 X40.594425 Y72.534840 Z-2.000000 I-0.439564 J-0.418968
G03 X40.517090 Y72.597784 Z-2.000000 I-0.683976 J-0.761369
G03 X40.393253 Y72.683270 Z-2.000000 I-1.474606 J-2.003719
G03 X40.131228 Y72.839678 Z-2.000000 I-2.315169 J-3.580842
G03 X39.733097 Y73.048510 Z-2.000000 I-5.613534 J-10.218076
G03 X38.866712 Y73.447936 Z-2.000000 I-6.706090 J-13.406655
G03 X38.051457 Y73.745770 Z-2.000000 I-3.389646 J-8.013714
G03 X37.151245 Y73.981432 Z-2.000000 I-3.106157 J-10.028080
G03 X36.490910 Y74.079760 Z-2.000000 I-1.098678 J-5.111888
G02 X36.214502 Y74.110582 Z-2.000000 I0.436639 J5.170553
G02 X36.033879 Y74.142260 Z-2.000000 I0.352371 J2.539936
G02 X35.947342 Y74.164312 Z-2.000000 I0.227735 J1.074497
G02 X35.903019 Y74.179360 Z-2.000000 I0.180488 J0.604426
G01 X35.905258 Y74.180979 Z-2.000000
G03 X35.908919 Y74.183360 Z-2.000000 I-0.034080 J0.056406
G02 X35.950159 Y74.206584 Z-2.000000 I0.163305 J-0.241766
G02 X36.035872 Y74.241960 Z-2.000000 I0.482267 J-1.046951
G02 X36.213244 Y74.297293 Z-2.000000 I0.655289 J-1.788595
G02 X36.514387 Y74.365000 Z-2.000000 I1.193499 J-4.604830
G02 X37.146266 Y74.458983 Z-2.000000 I1.458569 J-7.635290
G02 X37.924543 Y74.509540 Z-2.000000 I0.995255 J-9.305302
G02 X39.364715 Y74.375707 Z-2.000000 I0.144934 J-6.256116
G02 X40.488997 Y73.966570 Z-2.000000 I-0.884004 J-4.178478
G03 X41.146520 Y73.627453 Z-2.000000 I13.021139 J24.440023
G03 X41.608137 Y73.406020 Z-2.000000 I7.354100 J14.739076
G03 X41.835215 Y73.304385 Z-2.000000 I4.697696 J10.191394
G03 X41.961653 Y73.253680 Z-2.000000 I0.957081 J2.203557
G03 X42.024031 Y73.232097 Z-2.000000 I0.569322 J1.544517
G03 X42.063215 Y73.222480 Z-2.000000 I0.085918 J0.265427
G03 X42.073444 Y73.221133 Z-2.000000 I0.049857 J0.339026
G03 X42.084695 Y73.220480 Z-2.000000 I0.011251 J0.096640
G01 X42.089949 Y73.221023 Z-2.000000
G02 X42.096415 Y73.222480 Z-2.000000 I3.779880 J-16.761211
G03 X42.109324 Y73.225939 Z-2.000000 I-0.006561 J0.050304
G01 X42.112035 Y73.226480 Z-2.000000
G03 X42.124710 Y73.232922 Z-2.000000 I-0.023888 J0.062689
G03 X42.133515 Y73.240180 Z-2.000000 I-0.027583 J0.042432
G03 X42.143110 Y73.252801 Z-2.000000 I-0.039011 J0.039617
G03 X42.149145 Y73.267580 Z-2.000000 I-0.058627 J0.032561
G03 X42.151146 Y73.278797 Z-2.000000 I-0.071779 J0.018589
G03 X42.151145 Y73.292980 Z-2.000000 I-0.070945 J0.007089
G03 X42.150480 Y73.296038 Z-2.000000 I-0.068476 J-0.013280
G03 X42.145245 Y73.310580 Z-2.000000 I-0.068971 J-0.016618
G03 X40.421109 Y75.359556 Z-2.000000 I-4.955475 J-2.419960
G03 X37.432354 Y76.724640 Z-2.000000 I-4.903553 J-6.781605
G03 X36.693783 Y76.810155 Z-2.000000 I-0.737718 J-3.139306
G02 X36.057354 Y76.837920 Z-2.000000 I-0.001921 J7.263927
G01 X36.054449 Y76.840949 Z-2.000000
G01 X36.051454 Y76.843920 Z-2.000000
G01 X36.047554 Y76.841920 Z-2.000000
G01 X36.043654 Y76.839920 Z-2.000000
G02 X35.542289 Y76.896942 Z-2.000000 I0.779098 J9.082867
G03 X34.592482 Y76.959060 Z-2.000000 I-0.884858 J-6.237267
G01 X34.592255 Y76.958980 Z-2.000000
G00 Z5.000000

(End cutting path id: path21)


(Start cutting path id: path21)
(Change tool to Default tool)

G00 Z5.000000
G00 X34.594255 Y76.851560

